Duotone.cube
LUT_3D_SIZE 33
0 0 0
0.0120546 0.00181582 0.00189212
0.0416571 0 1.5259e-05
0.0870985 0 0
0.1411 0 0
0.19118 0 0
0.22681 0 0
0.260319 0 0
0.2934 0 0
0.326085 0 0
0.358434 0 0
0.390463 0 0
0.422217 0 0
0.453712 0 0
0.484977 0 0
0.51603 0 0
0.546899 0 0
0.577585 0 0
0.608118 0 0
0.638483 0 0
0.668711 0 0
0.698817 0 0
0.728786 0 0
0.758648 0 0
0.788403 0 0
0.818051 0 0
0.847608 0 0
0.877058 0 0
0.906432 0 0
0.935729 0 0
0.964904 0 0
0.989578 0 0
1 0 0
0.0117952 0.0161593 0.0117952
0.0201419 0.0201419 0.0162966
0.0354314 0.0232853 0.0118257
0.0697642 0.0226139 0
0.11754 0.0178378 0
0.170642 0.0108492 0
0.214481 0.00569161 0
0.249088 0.0030518 0
0.282979 0.000701915 0
0.31635 0 0
0.349279 0 0
0.381826 0 0
0.414038 0 0
0.44596 0 0
0.477607 0 0
0.50901 0 0
0.5402 0 0
0.571191 0 0
0.601984 0 0
0.632609 0 0
0.663066 0 0
0.693385 0 0
0.723568 0 0
0.753613 0 0
0.783536 0 0
0.813352 0 0
0.843061 0 0
0.872648 0 0
0.902159 0 0
0.931579 0 0
0.960876 0 0
0.985718 0 0
1 0 0
0.0252384 0.0343633 0.0252232
0.033753 0.0386206 0.0303807
0.0428626 0.0428626 0.0347295
0.0579843 0.0469215 0.0268254
0.0935531 0.0480507 0
0.142855 0.0448005 0
0.191302 0.040238 0
0.229053 0.0373236 0
0.26392 0.0349737 0
0.297398 0.0329595 0
0.330678 0.0310216 0
0.363897 0.029099 0
0.397269 0.0271153 0
0.431754 0.0246891 0
0.464836 0.0228275 0
0.4972 0.0212558 0
0.529122 0.019852 0
0.560723 0.0185855 0
0.59205 0.0174411 0
0.623133 0.0163882 0
0.654002 0.0154421 0
0.684688 0.0145571 0
0.715206 0.0137636 0
0.745556 0.0130312 0
0.775769 0.0123598 0
0.805829 0.0117494 0
0.835782 0.0112154 0
0.865599 0.0107118 0
0.895308 0.0102846 0
0.92491 0.00988785 0
0.954391 0.00955215 0
0.979431 0.0103914 0
1 0.011368 0
0.0393378 0.0534218 0.0393225
0.0480507 0.0578317 0.0449073
0.0571298 0.0622873 0.0495766
0.0666667 0.0666667 0.0540627
0.0808881 0.0712749 0.046128
0.113207 0.0738537 0.0108492
0.158236 0.0734874 0
0.200885 0.0711376 0
0.241199 0.0685283 0
0.279377 0.066041 0
0.315557 0.0638437 0
0.349981 0.0619669 0
0.382971 0.0604105 0
0.414984 0.0590982 0
0.446769 0.057847 0
0.478416 0.056672 0
0.509896 0.0555428 0
0.541268 0.0544747 0
0.572519 0.0534524 0
0.603677 0.0524605 0
0.634775 0.0514992 0
0.665827 0.0505531 0
0.696864 0.0496223 0
0.727993 0.048661 0
0.759411 0.0475929 0
0.791638 0.0462043 0
0.822675 0.0452888 0
0.853269 0.0445563 0
0.883604 0.043946 0
0.913741 0.0434119 0
0.943664 0.0429541 0
0.968994 0.0437324 0
0.993866 0.0446632 0
0.0538796 0.0730602 0.0538643
0.0627756 0.0775616 0.0598001
0.0718547 0.0821851 0.0646525
0.0813764 0.086717 0.069398
0.0912184 0.0912032 0.0740063
0.104402 0.0960708 0.0680705
0.131914 0.0998245 0.0369268
0.16968 0.101625 0
0.210437 0.101183 0
0.251209 0.0995193 0
0.290913 0.0974594 0
0.329168 0.0953689 0
0.365881 0.0934157 0
0.40116 0.0916762 0
0.435142 0.0901656 0
0.467964 0.0888991 0
0.499779 0.0878462 0
0.530846 0.0869917 0
0.56173 0.086183 0
0.592477 0.0854505 0
0.623087 0.0847639 0
0.65359 0.084123 0
0.68397 0.0835279 0
0.714244 0.0829786 0
0.744411 0.082475 0
0.774502 0.082002 0
0.804486 0.0815747 0
0.834409 0.081178 0
0.864256 0.0808118 0
0.894026 0.0804913 0
0.923705 0.0802014 0
0.949157 0.0809796 0
0.974105 0.0819104 0
0.0687877 0.0931258 0.0687572
0.0778363 0.0977188 0.0749981
0.0869154 0.102464 0.0800031
0.096437 0.107134 0.0848859
0.106249 0.111727 0.0897078
0.116304 0.116304 0.0944228
0.128573 0.121233 0.0914321
0.1514 0.125765 0.0667277
0.183795 0.128359 0.0341497
0.222156 0.12987 0
0.262028 0.129656 0
0.301839 0.12845 0
0.340948 0.126848 0
0.379004 0.125139 0
0.415869 0.123461 0
0.45156 0.12192 0
0.486137 0.120516 0
0.519677 0.11931 0
0.55227 0.118288 0
0.584039 0.117433 0
0.61503 0.116762 0
0.645426 0.116243 0
0.675654 0.115785 0
0.705776 0.115358 0
0.735775 0.114992 0
0.765667 0.114656 0
0.795468 0.114366 0
0.825177 0.114122 0
0.85481 0.113909 0
0.884337 0.113725 0
0.913771 0.113588 0
0.939376 0.114382 0
0.96437 0.115328 0
0.0839551 0.113573 0.0839399
0.0931868 0.118196 0.0904402
0.102251 0.123064 0.0955673
0.111727 0.127871 0.10045
0.121508 0.132616 0.105104
0.131609 0.137331 0.109606
0.142 0.14197 0.114046
0.153811 0.146868 0.113451
0.173693 0.151797 0.0936446
0.202152 0.155261 0.0648661
0.236576 0.157244 0.0332036
0.274876 0.158648 0
0.314015 0.158679 0
0.353033 0.157839 0
0.391531 0.156619 0
0.429236 0.155245 0
0.466011 0.153857 0
0.501823 0.152514 0
0.536706 0.151293 0
0.570672 0.150179 0
0.6038 0.149218 0
0.636164 0.148409 0
0.667796 0.147753 0
0.698772 0.147234 0
0.729152 0.146868 0
0.75903 0.146609 0
0.788754 0.14641 0
0.818387 0.146242 0
0.847913 0.14612 0
0.877363 0.146029 0
0.906706 0.145983 0
0.932525 0.146746 0
0.957671 0.147692 0
0.098146 0.134844 0.098085
0.107744 0.139452 0.104799
0.117815 0.143954 0.111315
0.127321 0.148806 0.116442
0.137072 0.153658 0.121248
0.147097 0.15848 0.12578
0.157412 0.163241 0.130282
0.167971 0.167956 0.134829
0.179446 0.172808 0.136141
0.197192 0.177981 0.120333
0.222522 0.182101 0.0948348
0.253803 0.184878 0.0657206
0.289052 0.186542 0.0355077
0.327077 0.187869 0
0.365728 0.18819 0
0.40415 0.187671 0
0.442161 0.186786 0
0.479545 0.185718 0
0.516167 0.184573 0
0.55201 0.183444 0
0.587045 0.182391 0
0.621302 0.181415 0
0.654795 0.180545 0
0.687572 0.179812 0
0.719692 0.179187 0
0.751186 0.178683 0
0.782116 0.178317 0
0.812497 0.178058 0
0.842405 0.17792 0
0.87187 0.17789 0
0.901167 0.17792 0
0.927245 0.178637 0
0.952514 0.179568 0
0.113619 0.155917 0.113558
0.123369 0.16054 0.1205
0.133577 0.165072 0.12726
0.143099 0.170016 0.132464
0.152911 0.174899 0.137591
0.16289 0.179782 0.142428
0.173098 0.184665 0.146914
0.183566 0.189487 0.151385
0.194263 0.194247 0.155993
0.205554 0.1991 0.158587
0.22182 0.204395 0.14612
0.244678 0.208988 0.123613
0.273243 0.212421 0.0966812
0.306004 0.21474 0.0683299
0.341573 0.21622 0.0396124
0.379065 0.217334 0.00833143
0.417472 0.218097 0
0.455406 0.217868 0
0.492988 0.217273 0
0.530053 0.216464 0
0.566506 0.215564 0
0.602289 0.214649 0
0.637385 0.213764 0
0.671778 0.212924 0
0.705516 0.212177 0
0.738598 0.211521 0
0.771084 0.210956 0
0.802976 0.210513 0
0.834333 0.210163 0
0.865171 0.209918 0
0.895521 0.209781 0
0.922591 0.21033 0
0.948348 0.21117 0
0.12929 0.177218 0.129229
0.139178 0.181857 0.136385
0.149538 0.186404 0.143343
0.159045 0.191424 0.148653
0.168856 0.196384 0.153857
0.178882 0.201297 0.158999
0.189075 0.20621 0.163912
0.199435 0.211139 0.168444
0.21004 0.216007 0.172976
0.220829 0.220813 0.177676
0.232029 0.225681 0.181064
0.247211 0.231037 0.171328
0.268162 0.235966 0.151522
0.294423 0.239918 0.126665
0.32491 0.242847 0.0998093
0.35845 0.244892 0.0724956
0.394095 0.246265 0.0452125
0.431159 0.247288 0.0167697
0.469245 0.248341 0
0.506783 0.248386 0
0.543984 0.248035 0
0.580758 0.247471 0
0.616999 0.246799 0
0.652689 0.246082 0
0.68777 0.245365 0
0.722255 0.244678 0
0.75613 0.244053 0
0.789425 0.243488 0
0.822171 0.243015 0
0.854368 0.242618 0
0.886046 0.242313 0
0.914717 0.242603 0
0.941878 0.243183 0
0.145144 0.198718 0.145068
0.155154 0.203387 0.152407
0.165652 0.207935 0.159579
0.175158 0.213031 0.164965
0.184955 0.218051 0.170245
0.194995 0.223026 0.175463
0.205219 0.22797 0.180652
0.215579 0.232914 0.185641
0.226078 0.237858 0.19028
0.236789 0.242771 0.194934
0.247654 0.247639 0.199634
0.258824 0.252537 0.203571
0.273198 0.257923 0.19617
0.292607 0.263066 0.17879
0.316945 0.267445 0.155932
0.345403 0.270893 0.13051
0.377066 0.273472 0.104234
0.411048 0.275334 0.0779889
0.446632 0.276646 0.0520485
0.483299 0.277638 0.0257115
0.521019 0.278843 0
0.558251 0.279164 0
0.595132 0.279057 0
0.631617 0.278721 0
0.667674 0.278264 0
0.703227 0.277729 0
0.738262 0.27718 0
0.772763 0.276646 0
0.806729 0.276143 0
0.840162 0.275685 0
0.873075 0.275303 0
0.903258 0.27538 0
0.931823 0.275761 0
0.161151 0.220401 0.161074
0.171283 0.225101 0.168582
0.181903 0.229664 0.175952
0.191409 0.234806 0.181399
0.201205 0.239902 0.186755
0.211231 0.244938 0.192035
0.221454 0.249928 0.197284
0.23183 0.254902 0.202487
0.242344 0.259861 0.207568
0.252979 0.264836 0.212345
0.263767 0.269795 0.21706
0.274723 0.274708 0.221805
0.285878 0.279622 0.226123
0.299641 0.285023 0.220722
0.31783 0.290333 0.205539
0.340536 0.295018 0.184604
0.367208 0.298909 0.160632
0.397116 0.301976 0.135378
0.429496 0.304311 0.109865
0.463706 0.30605 0.0846723
0.499184 0.307332 0.0599527
0.5355 0.308309 0.0352789
0.572641 0.309422 0.00660716
0.609781 0.31017 0
0.646387 0.310307 0
0.682643 0.310185 0
0.718486 0.309926 0
0.753918 0.309575 0
0.788876 0.309194 0
0.823362 0.308797 0
0.857343 0.308415 0
0.888914 0.3084 0
0.918776 0.308659 0
0.177325 0.242252 0.177249
0.187533 0.246967 0.184894
0.198291 0.251545 0.192447
0.207797 0.256748 0.197955
0.217594 0.261891 0.203372
0.227619 0.266987 0.208713
0.237842 0.272038 0.214023
0.248219 0.277058 0.219287
0.258732 0.282063 0.224521
0.269368 0.287053 0.229664
0.28011 0.292058 0.234562
0.29099 0.297032 0.239353
0.302007 0.301991 0.244144
0.313191 0.306935 0.248722
0.326467 0.312322 0.245045
0.343679 0.317754 0.231846
0.364996 0.322698 0.212726
0.390097 0.32694 0.190219
0.418402 0.330434 0.166018
0.449271 0.333211 0.141238
0.482124 0.335378 0.116564
0.516411 0.337041 0.0923629
0.551736 0.338308 0.0687572
0.587732 0.3393 0.0454566
0.624231 0.340185 0.0213474
0.661326 0.34136 0
0.697734 0.341756 0
0.733776 0.341848 0
0.769451 0.341772 0
0.80473 0.341588 0
0.839582 0.34136 0
0.872343 0.34136 0
0.90338 0.341588 0
0.193652 0.264256 0.193576
0.203922 0.269017 0.201312
0.214801 0.273579 0.209049
0.224308 0.278843 0.214618
0.234104 0.284031 0.220096
0.244129 0.289189 0.225498
0.254337 0.294286 0.230869
0.264714 0.299367 0.236179
0.275227 0.304417 0.241474
0.285863 0.309438 0.246738
0.296605 0.314458 0.251926
0.307454 0.319478 0.256916
0.31841 0.324498 0.261784
0.329503 0.329488 0.266621
0.340719 0.334462 0.271382
0.353643 0.339834 0.269184
0.370031 0.345327 0.257801
0.390188 0.350484 0.240406
0.413901 0.355016 0.219318
0.440742 0.358877 0.196216
0.470192 0.362066 0.172213
0.501732 0.36463 0.148043
0.534859 0.366674 0.124208
0.569162 0.368277 0.100954
0.604303 0.369543 0.0783398
0.640009 0.370565 0.0562295
0.676112 0.371435 0.0340429
0.712734 0.372549 0.00764477
0.749142 0.373358 0
0.785 0.373663 0
0.820508 0.373785 0
0.854215 0.373953 0
0.886244 0.374258 0
0.210132 0.286397 0.210056
0.220417 0.291188 0.217853
0.231418 0.295766 0.225757
0.24094 0.301076 0.231388
0.250721 0.306325 0.236912
0.260746 0.311513 0.242374
0.270954 0.31667 0.247791
0.281331 0.321782 0.253162
0.291844 0.326879 0.258503
0.30248 0.33196 0.263813
0.313222 0.337011 0.269108
0.324056 0.342061 0.274357
0.334997 0.347112 0.279408
0.346029 0.352148 0.284352
0.357183 0.357183 0.289235
0.36846 0.362188 0.294087
0.381079 0.367529 0.293217
0.396811 0.373083 0.283467
0.415976 0.378378 0.267659
0.438483 0.383169 0.24799
0.464012 0.387335 0.226001
0.492149 0.390875 0.202823
0.522408 0.39382 0.179217
0.554391 0.396246 0.155749
0.587671 0.398199 0.132723
0.621942 0.399771 0.110323
0.656901 0.401038 0.0886244
0.692348 0.402075 0.0675059
0.728099 0.402975 0.0466926
0.76408 0.40383 0.0252689
0.800504 0.405035 0
0.835065 0.405722 0
0.867918 0.406317 0
0.226749 0.308659 0.226658
0.237034 0.313512 0.234485
0.248157 0.318074 0.242573
0.257664 0.32343 0.248249
0.26746 0.328725 0.253819
0.27747 0.333974 0.259342
0.287678 0.339162 0.264805
0.298054 0.344335 0.270222
0.308568 0.349477 0.275624
0.319188 0.354589 0.28098
0.329931 0.359686 0.28632
0.34078 0.364767 0.29163
0.351705 0.369848 0.29691
0.362722 0.374914 0.302037
0.373831 0.37998 0.307042
0.385061 0.385046 0.311986
0.396368 0.390082 0.316884
0.408774 0.395407 0.317159
0.423957 0.400992 0.308873
0.442283 0.406409 0.294575
0.463737 0.411399 0.276265
0.488075 0.415839 0.255406
0.514992 0.419699 0.233082
0.54406 0.42298 0.210101
0.574914 0.425742 0.18703
0.607187 0.428031 0.164248
0.640558 0.429923 0.141985
0.674754 0.431479 0.120394
0.709529 0.432761 0.0995041
0.744732 0.433845 0.0792706
0.780179 0.43476 0.0595254
0.814801 0.435676 0.0418097
0.848173 0.436667 0.0263981
0.243519 0.331044 0.243427
0.253758 0.335958 0.25124
0.264988 0.34052 0.259464
0.274495 0.345922 0.265202
0.284291 0.351263 0.270817
0.294301 0.356542 0.276387
0.304509 0.361791 0.281895
0.314885 0.366995 0.287373
0.325383 0.372183 0.292805
0.336019 0.37734 0.298222
0.346761 0.382483 0.303593
0.357595 0.387594 0.308965
0.368521 0.392706 0.314305
0.379538 0.397803 0.319615
0.390631 0.402899 0.324788
0.401816 0.407996 0.329854
0.413092 0.413077 0.334859
0.42446 0.418158 0.339803
0.436683 0.423453 0.341039
0.451408 0.429053 0.334096
0.469017 0.434562 0.321202
0.48954 0.439719 0.304173
0.512825 0.444389 0.284443
0.538628 0.448524 0.26302
0.566583 0.45211 0.240711
0.596353 0.455192 0.218097
0.627634 0.457816 0.19559
0.660105 0.460014 0.17348
0.693492 0.46186 0.151934
0.727596 0.463416 0.131075
0.762203 0.464714 0.110948
0.796399 0.465888 0.0928817
0.829587 0.467002 0.0776837
0.260441 0.353521 0.260349
0.270604 0.358511 0.268132
0.28191 0.363088 0.276463
0.291432 0.368521 0.282231
0.301213 0.373907 0.287907
0.311238 0.379232 0.293523
0.321431 0.384512 0.299077
0.331807 0.389776 0.304585
0.342306 0.394995 0.310079
0.352926 0.400183 0.315526
0.363668 0.405371 0.320958
0.374502 0.410529 0.32636
0.385443 0.415671 0.331731
0.396445 0.420798 0.337102
0.407538 0.425925 0.342443
0.418708 0.431037 0.347662
0.429953 0.436164 0.352789
0.441276 0.441276 0.357839
0.452705 0.446372 0.362829
0.464805 0.451652 0.364874
0.479133 0.457267 0.359152
0.496117 0.462837 0.347555
0.515831 0.468132 0.331777
0.538186 0.472999 0.31313
0.562951 0.477378 0.292622
0.589853 0.481254 0.271031
0.618616 0.484627 0.24892
0.64892 0.487541 0.226749
0.680491 0.490043 0.204837
0.713085 0.49218 0.183368
0.746487 0.494011 0.162524
0.779904 0.495598 0.143404
0.812619 0.497047 0.127062
0.277516 0.376089 0.277424
0.287556 0.38117 0.28513
0.298924 0.385763 0.293538
0.308446 0.391241 0.299351
0.318227 0.396658 0.305074
0.328252 0.402029 0.310719
0.338445 0.407355 0.31632
0.348806 0.41265 0.321889
0.359319 0.417899 0.327413
0.36994 0.423133 0.332906
0.380667 0.428351 0.338369
0.391516 0.433555 0.343816
0.402441 0.438727 0.349233
0.413443 0.4439 0.354635
0.424536 0.449042 0.360021
0.435691 0.4542 0.365393
0.446921 0.459342 0.370672
0.458228 0.464485 0.37583
0.469627 0.469612 0.380926
0.481102 0.474739 0.385977
0.493095 0.480018 0.388693
0.507103 0.485634 0.384085
0.523552 0.491249 0.373709
0.54255 0.496651 0.359106
0.56405 0.501686 0.341527
0.587884 0.506279 0.321935
0.613825 0.510399 0.30106
0.641611 0.514046 0.279515
0.670985 0.517235 0.25774
0.701686 0.520027 0.236057
0.733486 0.522438 0.214725
0.765728 0.524559 0.194705
0.797635 0.526452 0.177188
0.294728 0.398749 0.294636
0.304646 0.403922 0.302235
0.31603 0.408545 0.310704
0.325551 0.414069 0.316548
0.335332 0.419532 0.322316
0.345342 0.424933 0.328008
0.35555 0.430289 0.333639
0.365911 0.435615 0.339254
0.37641 0.440909 0.344808
0.38703 0.446189 0.350347
0.397772 0.451438 0.355856
0.408606 0.456672 0.361334
0.419532 0.461875 0.366796
0.430533 0.467079 0.372244
0.441627 0.472267 0.377661
0.452781 0.47744 0.383078
0.464012 0.482612 0.388464
0.475303 0.48777 0.393774
0.486671 0.492943 0.398993
0.498116 0.4981 0.404135
0.509621 0.503258 0.409216
0.521569 0.508522 0.412497
0.535286 0.514122 0.408927
0.551278 0.519799 0.399664
0.56965 0.525292 0.386191
0.590387 0.530465 0.36965
0.613367 0.535241 0.350958
0.638407 0.539574 0.330846
0.665293 0.543465 0.30988
0.693782 0.546914 0.288548
0.723629 0.549981 0.26717
0.75433 0.552666 0.246586
0.785061 0.555077 0.228168
0.312062 0.421485 0.311986
0.321843 0.426764 0.319463
0.333211 0.431449 0.327932
0.342733 0.437003 0.333837
0.352514 0.442496 0.33962
0.362524 0.447929 0.345357
0.372732 0.45333 0.351034
0.383093 0.458686 0.35668
0.393591 0.464027 0.36228
0.404211 0.469322 0.367849
0.414939 0.474617 0.373388
0.425772 0.479881 0.378912
0.436698 0.485115 0.384421
0.4477 0.490349 0.389899
0.458793 0.495567 0.395346
0.469947 0.500786 0.400793
0.481178 0.505974 0.406226
0.49247 0.511162 0.411643
0.503822 0.51635 0.416999
0.515236 0.521538 0.422248
0.526726 0.526726 0.427436
0.538293 0.531899 0.432563
0.550179 0.537163 0.436316
0.563684 0.542763 0.433677
0.579263 0.548455 0.425467
0.59707 0.554025 0.413062
0.617121 0.559319 0.397513
0.639338 0.564248 0.379705
0.663554 0.56878 0.360357
0.68957 0.5729 0.340017
0.717205 0.576593 0.319158
0.746059 0.579904 0.298528
0.775296 0.582879 0.279606
0.329534 0.444312 0.329458
0.339147 0.449699 0.336812
0.350454 0.454429 0.345251
0.359991 0.460029 0.351171
0.369772 0.465553 0.357
0.379782 0.471031 0.362783
0.38999 0.476448 0.36849
0.400336 0.481849 0.374166
0.410834 0.487221 0.379812
0.421454 0.492546 0.385412
0.432181 0.497871 0.390997
0.443015 0.503166 0.396551
0.453941 0.508446 0.40209
0.464942 0.51371 0.407599
0.476036 0.518959 0.413092
0.48719 0.524193 0.418585
0.498421 0.529427 0.424048
0.509712 0.534646 0.429496
0.521065 0.539849 0.434928
0.532464 0.545068 0.440314
0.543938 0.550271 0.445609
0.555474 0.555474 0.450828
0.567086 0.560678 0.456001
0.578943 0.565927 0.460151
0.592248 0.571527 0.458366
0.607462 0.577234 0.451148
0.624781 0.582864 0.439734
0.644221 0.588266 0.425147
0.665736 0.593332 0.408225
0.689174 0.598047 0.389639
0.714412 0.60235 0.36994
0.741131 0.606271 0.349844
0.768597 0.609827 0.330892
0.347127 0.467216 0.347051
0.356542 0.472724 0.354253
0.367788 0.477516 0.362631
0.37731 0.483146 0.368597
0.387106 0.488701 0.374456
0.397116 0.494209 0.380255
0.407324 0.499672 0.386023
0.41767 0.505104 0.39173
0.428168 0.510491 0.397406
0.438788 0.515862 0.403052
0.449516 0.521218 0.408667
0.460334 0.526543 0.414252
0.47126 0.531853 0.419821
0.482261 0.537148 0.425376
0.493355 0.542428 0.4309
0.504509 0.547692 0.436408
0.51574 0.552956 0.441917
0.527016 0.558206 0.447395
0.538369 0.563439 0.452873
0.549783 0.568673 0.45832
0.561242 0.573892 0.463737
0.572763 0.579126 0.469062
0.584344 0.584344 0.474327
0.596002 0.589563 0.479545
0.607843 0.594827 0.484001
0.620966 0.600412 0.483009
0.635889 0.606134 0.476707
0.652766 0.611811 0.466239
0.671656 0.617288 0.452583
0.692515 0.622492 0.436515
0.715251 0.627359 0.418677
0.739696 0.631846 0.399771
0.765179 0.635966 0.381369
0.364813 0.490196 0.364752
0.37406 0.495811 0.371786
0.385199 0.500694 0.380072
0.39472 0.506355 0.386069
0.404517 0.51194 0.391974
0.414527 0.517479 0.397818
0.42472 0.522972 0.403601
0.43508 0.528435 0.409339
0.445563 0.533852 0.415061
0.456184 0.539254 0.420737
0.466911 0.54464 0.426383
0.477729 0.549996 0.431998
0.488655 0.555337 0.437613
0.499657 0.560662 0.443183
0.510735 0.565972 0.448753
0.521889 0.571267 0.454292
0.53312 0.576562 0.459831
0.544411 0.581827 0.465339
0.555764 0.587091 0.470848
0.567163 0.592355 0.476341
0.578622 0.597604 0.481819
0.590143 0.602853 0.487251
0.601709 0.608087 0.492622
0.613336 0.613336 0.497917
0.62504 0.61857 0.503166
0.636866 0.62385 0.507881
0.649851 0.629419 0.507622
0.664485 0.635157 0.502174
0.68098 0.640864 0.492607
0.699367 0.646418 0.479835
0.719646 0.651728 0.464591
0.741726 0.656718 0.447578
0.765072 0.661372 0.43032
0.382605 0.513268 0.382544
0.391653 0.51899 0.389425
0.402655 0.523964 0.397589
0.412192 0.529641 0.403616
0.421988 0.535271 0.409552
0.431998 0.540841 0.415427
0.442191 0.546365 0.421241
0.452537 0.551843 0.427024
0.463035 0.557305 0.432761
0.47364 0.562737 0.438468
0.484367 0.568139 0.44416
0.495201 0.573526 0.449805
0.506111 0.578897 0.455451
0.517113 0.584253 0.461051
0.528191 0.589593 0.466651
0.539345 0.594919 0.472221
0.550576 0.600229 0.477791
0.561868 0.605524 0.48333
0.573205 0.610819 0.488869
0.584619 0.616114 0.494392
0.596078 0.621378 0.499901
0.607599 0.626657 0.505394
0.61915 0.631922 0.510872
0.630777 0.637186 0.516258
0.642451 0.642435 0.521584
0.654185 0.6477 0.526864
0.666026 0.652979 0.531807
0.678874 0.658534 0.532219
0.693278 0.664271 0.527565
0.709407 0.670024 0.518853
0.727352 0.675639 0.50692
0.747097 0.681041 0.4925
0.768277 0.686137 0.477043
0.400458 0.536416 0.400412
0.409339 0.542229 0.407156
0.420188 0.547311 0.415167
0.429725 0.553017 0.421225
0.439521 0.558679 0.427192
0.449531 0.564263 0.433097
0.459724 0.569818 0.438941
0.470085 0.575341 0.444755
0.480568 0.580835 0.450523
0.491173 0.586282 0.456275
0.5019 0.59173 0.461982
0.512734 0.597131 0.467674
0.523644 0.602533 0.473335
0.534646 0.607919 0.478981
0.545724 0.613275 0.484596
0.556878 0.618631 0.490211
0.568093 0.623972 0.495796
0.579385 0.629297 0.501381
0.590738 0.634623 0.506935
0.602136 0.639933 0.512489
0.613596 0.645228 0.518029
0.625116 0.650523 0.523552
0.636667 0.655818 0.529076
0.64828 0.661097 0.534569
0.659937 0.666377 0.539986
0.671656 0.671656 0.545342
0.683436 0.676936 0.550652
0.695293 0.682216 0.555749
0.708034 0.687755 0.556802
0.722225 0.693507 0.552895
0.738033 0.699275 0.544991
0.755566 0.704952 0.533867
0.774624 0.710414 0.520851
0.418387 0.55964 0.418341
0.427115 0.56556 0.424964
0.437797 0.570733 0.432807
0.447318 0.576486 0.438895
0.457115 0.582162 0.444892
0.467124 0.587777 0.450813
0.477333 0.593362 0.456703
0.487678 0.598917 0.462547
0.498161 0.604425 0.468345
0.508782 0.609918 0.474113
0.519493 0.615381 0.479866
0.530312 0.620813 0.485573
0.541238 0.626245 0.491279
0.552224 0.631647 0.496941
0.563317 0.637034 0.502602
0.574456 0.64242 0.508232
0.585687 0.647791 0.513848
0.596963 0.653132 0.519463
0.608316 0.658488 0.525048
0.619715 0.663813 0.530632
0.631174 0.669139 0.536202
0.642695 0.674464 0.541756
0.654261 0.679774 0.547295
0.665858 0.685084 0.552834
0.677516 0.690379 0.558343
0.689219 0.695674 0.56379
0.700984 0.700969 0.569192
0.712779 0.706264 0.574533
0.724666 0.711559 0.579736
0.737316 0.717098 0.581369
0.751308 0.722835 0.57818
0.766842 0.728634 0.571008
0.783886 0.734325 0.561105
0.435676 0.583246 0.43563
0.443275 0.589685 0.441032
0.452964 0.595346 0.447669
0.462043 0.601343 0.453056
0.471855 0.60708 0.458854
0.482033 0.612696 0.46479
0.492378 0.61825 0.470665
0.502892 0.623789 0.476509
0.513527 0.629282 0.482307
