Duotone.cube
LUT_3D_SIZE 5
0 0 0
0.2934 0 0
0.546899 0 0
0.788403 0 0
1 0 0
0.113619 0.155917 0.113558
0.194263 0.194247 0.155993
0.417472 0.218097 0
0.705516 0.212177 0
0.948348 0.21117 0
0.243519 0.331044 0.243427
0.325383 0.372183 0.292805
0.413092 0.413077 0.334859
0.566583 0.45211 0.240711
0.829587 0.467002 0.0776837
0.382605 0.513268 0.382544
0.463035 0.557305 0.432761
0.550576 0.600229 0.477791
0.642451 0.642435 0.521584
0.768277 0.686137 0.477043
0.526604 0.700832 0.526604
0.602701 0.748608 0.572778
0.690761 0.793088 0.618433
0.783688 0.836454 0.663935
0.878889 0.878904 0.713802
0.205081 0 0.464469
0.100801 0.0370336 0.11313
0.450599 0 0.244709
0.76109 0 0.278065
1 0 0.281422
0.101381 0.175845 0.207218
0.210422 0.210529 0.21059
0.466636 0.203662 0.205951
0.710185 0.201083 0.205753
0.938704 0.203326 0.210254
0.26041 0.347799 0.296956
0.342977 0.389319 0.342977
0.430594 0.430579 0.383688
0.641047 0.45568 0.266377
0.913619 0.455146 0.207736
0.399207 0.531197 0.431876
0.481331 0.57496 0.481331
0.56875 0.618097 0.525948
0.660548 0.660533 0.569085
0.811353 0.701015 0.492027
0.54464 0.718975 0.574456
0.62327 0.765743 0.623255
0.709361 0.81117 0.667002
0.802167 0.854704 0.712169
0.897154 0.897597 0.759991
0.324681 0 0.657252
0.362249 0 0.590356
0.211688 0.0830091 0.211643
0.483543 0.0492256 0.347723
0.848142 0 0.46981
0.0285344 0.175692 0.620066
0.114534 0.221775 0.601312
0.315251 0.263813 0.328618
0.629892 0.225971 0.436683
0.921904 0.206195 0.46717
0.240482 0.370321 0.409201
0.324178 0.41323 0.443168
0.447883 0.447974 0.448035
0.691157 0.448249 0.450202
0.923354 0.451987 0.455863
0.415671 0.549096 0.495705
0.499672 0.592676 0.542885
0.586969 0.636011 0.586969
0.678721 0.678706 0.628931
0.882231 0.706233 0.530449
0.56231 0.73727 0.634958
0.642191 0.783719 0.684031
0.729763 0.828504 0.729778
0.820981 0.872786 0.773587
0.915831 0.916121 0.818708
0.426139 0 0.80325
0.487511 0 0.777523
0.483436 0 0.538033
0.328847 0.131319 0.311162
0.543145 0.118151 0.4365
0.156832 0.147372 0.766674
0.228702 0.198764 0.742077
0.401679 0.230182 0.641672
0.436454 0.316045 0.432425
0.68954 0.295079 0.560784
0.140093 0.390738 0.732906
0.166735 0.444785 0.819242
0.352071 0.470054 0.760357
0.559777 0.504875 0.564843
0.852659 0.477592 0.670192
0.391211 0.573098 0.61648
0.475792 0.61796 0.653178
0.574578 0.659754 0.682979
0.696727 0.696773 0.696803
0.930831 0.701808 0.703563
0.578775 0.755932 0.702159
0.661112 0.801846 0.750164
0.74844 0.84683 0.79559
0.840116 0.890944 0.840131
0.934615 0.934737 0.883055
0.518624 0 0.918135
0.579049 0 0.897826
0.694759 0 0.785977
0.58233 0.0610971 0.517296
0.451331 0.180804 0.411902
0.262562 0.130266 0.882368
0.328405 0.18349 0.859495
0.501564 0.211322 0.789792
0.607004 0.273686 0.613947
0.5617 0.368826 0.536568
0.187884 0.379614 0.943999
0.262303 0.430671 0.942321
0.44477 0.457847 0.876905
0.660014 0.480735 0.771282
0.685527 0.560281 0.670298
0.309148 0.596933 0.87393
0.34107 0.652583 0.951568
0.448783 0.690929 0.988769
0.669795 0.710292 0.911162
0.816709 0.755276 0.809689
0.555901 0.779767 0.826459
0.634134 0.827985 0.866835
0.732113 0.871519 0.899046
0.83949 0.913008 0.927428
0.953246 0.953246 0.953246
