Duotone.cube
LUT_3D_SIZE 9
0 0 0
0.1411 0 0
0.2934 0 0
0.422217 0 0
0.546899 0 0
0.668711 0 0
0.788403 0 0
0.906432 0 0
1 0 0
0.0538796 0.0730602 0.0538643
0.0912184 0.0912032 0.0740063
0.210437 0.101183 0
0.365881 0.0934157 0
0.499779 0.0878462 0
0.623087 0.0847639 0
0.744411 0.082475 0
0.864256 0.0808118 0
0.974105 0.0819104 0
0.113619 0.155917 0.113558
0.152911 0.174899 0.137591
0.194263 0.194247 0.155993
0.273243 0.212421 0.0966812
0.417472 0.218097 0
0.566506 0.215564 0
0.705516 0.212177 0
0.834333 0.210163 0
0.948348 0.21117 0
0.177325 0.242252 0.177249
0.217594 0.261891 0.203372
0.258732 0.282063 0.224521
0.302007 0.301991 0.244144
0.364996 0.322698 0.212726
0.482124 0.335378 0.116564
0.624231 0.340185 0.0213474
0.769451 0.341772 0
0.90338 0.341588 0
0.243519 0.331044 0.243427
0.284291 0.351263 0.270817
0.325383 0.372183 0.292805
0.368521 0.392706 0.314305
0.413092 0.413077 0.334859
0.469017 0.434562 0.321202
0.566583 0.45211 0.240711
0.693492 0.46186 0.151934
0.829587 0.467002 0.0776837
0.312062 0.421485 0.311986
0.352514 0.442496 0.33962
0.393591 0.464027 0.36228
0.436698 0.485115 0.384421
0.481178 0.505974 0.406226
0.526726 0.526726 0.427436
0.579263 0.548455 0.425467
0.663554 0.56878 0.360357
0.775296 0.582879 0.279606
0.382605 0.513268 0.382544
0.421988 0.535271 0.409552
0.463035 0.557305 0.432761
0.506111 0.578897 0.455451
0.550576 0.600229 0.477791
0.596078 0.621378 0.499901
0.642451 0.642435 0.521584
0.693278 0.664271 0.527565
0.768277 0.686137 0.477043
0.454032 0.606485 0.454002
0.489509 0.630747 0.476616
0.531136 0.653071 0.50013
0.574807 0.674922 0.523156
0.619837 0.696513 0.545846
0.665904 0.717906 0.568276
0.71281 0.739162 0.590539
0.760418 0.760357 0.612497
0.809873 0.781796 0.628763
0.526604 0.700832 0.526604
0.563653 0.724727 0.551858
0.602701 0.748608 0.572778
0.645808 0.771099 0.595438
0.690761 0.793088 0.618433
0.736797 0.814832 0.641276
0.783688 0.836454 0.663935
0.831266 0.857954 0.686427
0.878889 0.878904 0.713802
0.0787671 0 0.198108
0.045243 0.0180209 0.0534066
0.238788 0 0.127062
0.405936 0 0.142046
0.537575 0 0.140749
0.658885 0 0.138262
0.77818 0 0.136263
0.895857 0 0.13463
1 0 0.134005
0.0501411 0.0820935 0.0958724
0.0989242 0.0989242 0.0989242
0.221622 0.095079 0.0961929
0.36611 0.085832 0.0885786
0.491829 0.0819867 0.0862135
0.614679 0.0792248 0.0850385
0.73547 0.0773022 0.0848096
0.854749 0.076051 0.0853895
0.96408 0.0776989 0.0886854
0.121798 0.163638 0.139361
0.161135 0.182956 0.161196
0.202335 0.202319 0.180438
0.314153 0.212604 0.106523
0.463157 0.20795 0.0634928
0.593378 0.205127 0.0531472
0.713878 0.204379 0.0517281
0.832502 0.204318 0.0511177
0.942687 0.206348 0.0559854
0.185733 0.250324 0.201938
0.2262 0.270191 0.2262
0.267277 0.290455 0.247166
0.310536 0.310521 0.266194
0.387961 0.32929 0.216449
0.525536 0.334295 0.133165
0.670741 0.33312 0.0813916
0.807553 0.331609 0.0536812
0.929564 0.332143 0.0470893
0.251911 0.339437 0.267094
0.293126 0.359747 0.293126
0.334173 0.380743 0.314977
0.377279 0.401343 0.336339
0.421836 0.42182 0.35642
0.484703 0.442985 0.329274
0.598856 0.456107 0.244846
0.736751 0.460685 0.17171
0.874662 0.462104 0.124285
0.320317 0.430243 0.334554
0.361547 0.451133 0.361547
0.402579 0.472724 0.384085
0.44564 0.493889 0.406119
0.490089 0.514809 0.427848
0.535637 0.535622 0.448753
0.591867 0.557488 0.437385
0.687877 0.575418 0.363729
0.810834 0.585641 0.287297
0.391012 0.52221 0.404288
0.431174 0.54403 0.431174
0.47219 0.566125 0.454292
0.515236 0.587777 0.476875
0.55967 0.609155 0.499153
0.605142 0.630365 0.521187
0.651499 0.651484 0.542687
0.704448 0.673548 0.542092
0.787533 0.694179 0.482536
0.463004 0.615396 0.475731
0.501289 0.638468 0.501274
0.540764 0.661738 0.522667
0.584024 0.683833 0.545129
0.628992 0.70547 0.567697
0.675044 0.726909 0.590066
0.72192 0.748211 0.612268
0.769512 0.769451 0.634073
0.820249 0.791241 0.644938
0.535882 0.709834 0.547784
0.573022 0.73373 0.573022
0.611505 0.757824 0.593713
0.65507 0.780133 0.61706
0.700053 0.802136 0.640085
0.746059 0.823926 0.662867
0.79292 0.845579 0.685466
0.840482 0.867124 0.707927
0.888029 0.888243 0.73434
0.205081 0 0.464469
0.1953 0 0.420447
0.100801 0.0370336 0.11313
0.253727 0.0129549 0.18175
0.450599 0 0.244709
0.617151 0 0.268971
0.76109 0 0.278065
0.889845 0 0.281361
1 0 0.281422
0 0.0806897 0.40885
0.0479896 0.106157 0.285237
0.145388 0.124529 0.156847
0.319753 0.0978561 0.214771
0.481239 0.081178 0.230396
0.611368 0.0759899 0.232731
0.732067 0.074052 0.234272
0.851301 0.0727398 0.236667
0.960906 0.0745556 0.23917
0.101381 0.175845 0.207218
0.152667 0.194034 0.209171
0.210422 0.210529 0.21059
0.327092 0.210025 0.210971
0.466636 0.203662 0.205951
0.589715 0.201923 0.205386
0.710185 0.201083 0.205753
0.828626 0.200992 0.206851
0.938704 0.203326 0.210254
0.194247 0.258381 0.232822
0.234653 0.278553 0.255222
0.275792 0.298894 0.275853
0.318944 0.318929 0.295674
0.42707 0.330282 0.23238
0.571344 0.327169 0.198566
0.698848 0.325765 0.192615
0.817517 0.326299 0.19379
0.929152 0.328634 0.198734
0.26041 0.347799 0.296956
0.301976 0.368246 0.32134
0.342977 0.389319 0.342977
0.386023 0.409995 0.364157
0.430594 0.430579 0.383688
0.507118 0.449866 0.339529
0.641047 0.45568 0.266377
0.782956 0.455283 0.224094
0.913619 0.455146 0.207736
0.328664 0.438926 0.363302
0.370581 0.45977 0.389197
0.411566 0.481437 0.411566
0.454597 0.502663 0.433448
0.499016 0.523644 0.455039
0.544564 0.544549 0.475471
0.607416 0.566079 0.451362
0.719524 0.579705 0.373907
0.852842 0.585077 0.31165
0.399207 0.531197 0.431876
0.44036 0.552804 0.458366
0.481331 0.57496 0.481331
0.524346 0.596658 0.503807
0.56875 0.618097 0.525948
0.614191 0.639353 0.54789
0.660548 0.660533 0.569085
0.717052 0.682719 0.559487
0.811353 0.701015 0.492027
0.471382 0.624521 0.502708
0.510811 0.647211 0.528725
0.551934 0.669779 0.551934
0.594125 0.692302 0.573678
0.638437 0.714275 0.595453
0.68423 0.735866 0.617365
0.731029 0.757259 0.639307
0.778607 0.778561 0.660853
0.831388 0.800656 0.664652
0.54464 0.718975 0.574456
0.582559 0.742626 0.599908
0.62327 0.765743 0.623255
0.664775 0.788952 0.644526
0.709361 0.81117 0.667002
0.755322 0.833021 0.689647
0.802167 0.854704 0.712169
0.849699 0.876295 0.734539
0.897154 0.897597 0.759991
0.268116 0 0.569787
0.275868 0 0.567025
0.244343 0 0.387533
0.155261 0.0596323 0.162325
0.273548 0.0482643 0.218784
0.471351 0.0103609 0.308019
0.654917 0 0.359777
0.818875 0 0.388022
0.959197 0 0.401175
0.064332 0.0523384 0.526787
0.0710613 0.0842908 0.520012
0.137682 0.105608 0.456733
0.201114 0.148241 0.216159
0.345006 0.130724 0.276295
0.527459 0.10341 0.328923
0.691051 0.085771 0.353765
0.835096 0.0759136 0.366125
0.956741 0.0739605 0.371069
0 0.190951 0.45597
0 0.224964 0.52987
0.133577 0.22742 0.388647
0.25835 0.238178 0.269841
0.424308 0.216205 0.323888
0.580041 0.202884 0.338079
0.707378 0.199863 0.340337
0.826017 0.199741 0.341894
0.936522 0.202213 0.343923
0.169116 0.271748 0.307454
0.207767 0.293141 0.325032
0.26659 0.310658 0.3252
0.327352 0.327443 0.327504
0.440299 0.32903 0.3299
0.576043 0.324697 0.326787
0.696925 0.324498 0.327642
0.815625 0.325032 0.329244
0.927062 0.327672 0.332845
0.269139 0.356115 0.329747
0.310719 0.376806 0.352499
0.351644 0.397971 0.373922
0.394766 0.418677 0.394842
0.439231 0.439231 0.415122
0.544915 0.451453 0.358083
0.685802 0.449714 0.328618
0.811292 0.449516 0.32459
0.924575 0.452018 0.329351
0.337102 0.447562 0.395178
0.379629 0.468452 0.419654
0.420569 0.490166 0.441855
0.463569 0.511467 0.463569
0.507942 0.532494 0.485008
0.553506 0.553491 0.504936
0.629435 0.573205 0.464668
0.760647 0.579812 0.397681
0.897841 0.580667 0.362448
0.40737 0.540185 0.462638
0.449546 0.561593 0.488334
0.490501 0.58381 0.511147
0.533486 0.60557 0.533486
0.577844 0.627054 0.555505
0.62327 0.648356 0.57731
0.669627 0.669612 0.598062
0.732525 0.691463 0.576257
0.84213 0.705623 0.50544
0.479698 0.633661 0.532494
0.520012 0.656123 0.558389
0.561227 0.678691 0.581613
0.604288 0.700862 0.604303
0.648264 0.722942 0.626169
0.693645 0.744717 0.647807
0.7402 0.766247 0.669429
0.787686 0.78764 0.690501
0.844022 0.809918 0.68481
0.553628 0.728069 0.603754
0.591745 0.751675 0.629236
0.632883 0.774639 0.652964
0.675975 0.797177 0.675975
0.719524 0.819791 0.697765
0.764858 0.841962 0.719646
0.81146 0.863798 0.741711
0.85893 0.885451 0.763836
0.906462 0.906859 0.788434
0.324681 0 0.657252
0.332952 0 0.65478
0.362249 0 0.590356
0.289219 0.0099031 0.365743
0.211688 0.0830091 0.211643
0.308064 0.0797742 0.261662
0.483543 0.0492256 0.347723
0.678569 0.0148013 0.425696
0.848142 0 0.46981
0.136049 0.0330968 0.618433
0.139879 0.0664988 0.607736
0.198489 0.0859693 0.58085
0.249897 0.123873 0.421759
0.259403 0.172946 0.267338
0.377584 0.163928 0.324819
0.553903 0.136416 0.395499
0.729122 0.112856 0.441642
0.884184 0.0982681 0.467582
0.0285344 0.175692 0.620066
0.0429084 0.205173 0.627039
0.114534 0.221775 0.601312
0.213214 0.235477 0.534249
0.315251 0.263813 0.328618
0.454429 0.249393 0.387884
0.629892 0.225971 0.436683
0.788235 0.211414 0.458656
0.921904 0.206195 0.46717
0.0870222 0.287312 0.504189
0.072343 0.319142 0.569726
0.0794995 0.345922 0.626184
0.247944 0.34725 0.491432
0.377035 0.356222 0.387137
0.536828 0.337407 0.439811
0.688472 0.326345 0.453956
0.813687 0.324819 0.456992
0.92549 0.327581 0.459251
0.240482 0.370321 0.409201
0.280217 0.392187 0.427543
0.324178 0.41323 0.443168
0.386511 0.430625 0.443809
0.447883 0.447974 0.448035
0.558282 0.451041 0.451865
0.691157 0.448249 0.450202
0.8103 0.449241 0.452186
0.923354 0.451987 0.455863
0.345892 0.456123 0.42916
0.388586 0.477165 0.452125
0.429465 0.498955 0.474159
0.472419 0.520317 0.49572
0.516869 0.541375 0.51693
0.562341 0.562341 0.537591
0.666239 0.575265 0.484962
0.804456 0.57467 0.458442
0.925658 0.576043 0.457527
0.415671 0.549096 0.495705
0.458747 0.570413 0.520226
0.499672 0.592676 0.542885
0.542626 0.614481 0.565072
0.586969 0.636011 0.586969
0.632349 0.657374 0.608652
0.678721 0.678706 0.628931
0.754223 0.698787 0.591608
0.882231 0.706233 0.530449
0.487739 0.642893 0.564477
0.529381 0.665034 0.589899
0.570413 0.687694 0.613031
0.61355 0.70985 0.63563
0.657938 0.731777 0.657938
0.703151 0.753597 0.679774
0.749447 0.775219 0.701366
0.79678 0.79675 0.721981
0.859388 0.818784 0.703624
0.56231 0.73727 0.634958
0.601221 0.760678 0.660365
0.642191 0.783719 0.684031
0.685374 0.806226 0.707073
0.729763 0.828504 0.729778
0.774777 0.850767 0.751766
0.820981 0.872786 0.773587
0.868208 0.89456 0.795407
0.915831 0.916121 0.818708
0.376989 0 0.733791
0.385718 0 0.730892
0.436881 0 0.706081
0.4262 0 0.561532
0.331594 0.0442206 0.360327
0.269642 0.106935 0.26125
0.34931 0.109834 0.307408
0.509606 0.0844739 0.391669
0.686168 0.0561532 0.466011
0.205432 0.0158083 0.702953
0.201541 0.0522927 0.685542
0.256321 0.0729839 0.658869
0.32343 0.0956741 0.589364
0.330938 0.149172 0.412665
0.318883 0.198016 0.318486
0.417609 0.195666 0.372595
0.582055 0.171176 0.449805
0.751766 0.148089 0.506859
0.0956893 0.15935 0.702708
0.109957 0.190326 0.698924
0.174121 0.208988 0.675425
0.260395 0.222583 0.64126
0.344717 0.24979 0.500191
0.375357 0.289845 0.380484
0.490639 0.282963 0.439139
0.660914 0.258991 0.506004
0.825422 0.240452 0.546304
0.0688487 0.286061 0.676127
0.0626841 0.317189 0.726955
0.127291 0.335073 0.715373
0.218585 0.34786 0.68191
0.330144 0.35877 0.614557
0.435462 0.382971 0.445274
0.570138 0.370916 0.50515
0.740444 0.350271 0.551919
0.890379 0.339406 0.571694
0.171374 0.38613 0.573754
0.17586 0.415167 0.621164
0.184924 0.44239 0.673808
0.210208 0.466133 0.717983
0.3776 0.467491 0.593515
0.49958 0.477409 0.507469
0.654246 0.461051 0.559838
0.802762 0.451698 0.574243
0.922148 0.452628 0.577752
0.314611 0.470924 0.512276
0.355245 0.493156 0.531182
0.398947 0.514839 0.547707
0.447105 0.535531 0.562463
0.510628 0.553201 0.564523
0.571176 0.571252 0.571298
0.679667 0.575479 0.576257
0.810239 0.573907 0.575769
0.925002 0.576669 0.579431
0.423331 0.558099 0.531304
0.467887 0.579263 0.553674
0.508766 0.601587 0.576181
0.551659 0.623453 0.59823
0.595972 0.645029 0.619989
0.641428 0.666407 0.641474
0.687709 0.687709 0.66247
0.790326 0.701228 0.613092
0.92491 0.701869 0.590066
0.495995 0.652018 0.598352
0.53875 0.673961 0.622873
0.57969 0.696681 0.645914
0.622751 0.718898 0.668391
0.667185 0.740841 0.690578
0.712581 0.762615 0.712581
0.75874 0.784268 0.734325
0.805936 0.805905 0.754635
0.880751 0.826291 0.720684
0.570367 0.746654 0.66775
0.610697 0.76968 0.692958
0.651637 0.792767 0.716503
0.694652 0.815366 0.739483
0.739132 0.837644 0.762112
0.784543 0.859754 0.784543
0.830594 0.881804 0.806561
0.877577 0.90367 0.828351
0.925216 0.925429 0.850294
0.426139 0 0.80325
0.43534 0 0.798871
0.487511 0 0.777523
0.527184 0 0.701701
0.483436 0 0.538033
0.384451 0.0738842 0.376593
0.328847 0.131319 0.311162
0.394736 0.139132 0.355459
0.543145 0.118151 0.4365
0.264515 0.00334173 0.774044
0.25948 0.040238 0.756664
0.310735 0.06215 0.729198
0.386679 0.0783093 0.691722
0.422019 0.118151 0.563836
0.401373 0.175631 0.426246
0.379431 0.223362 0.369757
0.462562 0.226337 0.421729
0.612482 0.206638 0.497749
0.156832 0.147372 0.766674
0.168154 0.179065 0.764508
0.228702 0.198764 0.742077
0.31191 0.213199 0.709194
0.401679 0.230182 0.641672
0.436088 0.27306 0.497246
0.436454 0.316045 0.432425
0.533333 0.315236 0.489189
0.68954 0.295079 0.560784
0.105013 0.275563 0.789212
0.117952 0.305882 0.801434
0.183688 0.324727 0.780163
0.270863 0.338628 0.748241
0.37145 0.349599 0.708736
0.465782 0.372671 0.585534
0.49688 0.409918 0.497658
0.60856 0.404944 0.557992
0.770535 0.384939 0.620401
0.140093 0.390738 0.732906
0.1346 0.421958 0.786954
0.166735 0.444785 0.819242
0.249439 0.45922 0.798871
0.352071 0.470054 0.760357
0.469596 0.47982 0.694667
0.559777 0.504875 0.564843
0.68957 0.495003 0.62591
0.852659 0.477592 0.670192
0.256367 0.48632 0.654932
0.27126 0.514046 0.692714
0.293019 0.539788 0.730678
0.316884 0.564523 0.773434
0.357671 0.585718 0.805692
0.517555 0.588495 0.695048
0.625101 0.601083 0.630167
0.775174 0.586786 0.682872
0.918105 0.579782 0.697078
0.391211 0.573098 0.61648
0.432242 0.595743 0.63592
0.475792 0.61796 0.653178
0.523674 0.639185 0.668696
0.574578 0.659754 0.682979
0.63798 0.677897 0.687022
0.696727 0.696773 0.696803
0.803693 0.70193 0.702678
0.930831 0.701808 0.703563
0.500114 0.661921 0.637385
0.547219 0.683085 0.657893
0.588952 0.705684 0.680003
0.631922 0.727977 0.702388
0.676295 0.749966 0.724468
0.721706 0.771771 0.746349
0.768017 0.793408 0.768063
0.815015 0.815 0.789273
0.915923 0.829114 0.743389
0.578775 0.755932 0.702159
0.620188 0.778729 0.726757
0.661112 0.801846 0.750164
0.704036 0.824506 0.773068
0.74844 0.84683 0.79559
0.793896 0.868955 0.817929
0.840116 0.890944 0.840131
0.886992 0.91284 0.862074
0.934615 0.934737 0.883055
0.47306 0 0.865492
0.482597 0 0.860761
0.534203 0 0.840101
0.599619 0 0.798917
0.602487 0 0.677821
0.535454 0.0259251 0.52433
0.440833 0.102098 0.403067
0.389044 0.156069 0.361364
0.445716 0.16701 0.406699
0.318181 0 0.837705
0.317845 0.0285801 0.82565
0.362753 0.0528878 0.793927
0.437308 0.0692454 0.758755
0.502815 0.0938582 0.682124
0.504433 0.14461 0.550149
0.467994 0.202319 0.452369
0.440848 0.248966 0.42118
0.510155 0.256703 0.471168
0.211246 0.138003 0.826749
0.221698 0.169986 0.824765
0.27985 0.190402 0.803052
0.360754 0.205493 0.771099
0.455772 0.2177 0.729946
0.514824 0.249424 0.620523
0.512398 0.298741 0.516335
0.498466 0.342412 0.48452
0.579385 0.34699 0.538888
0.158755 0.265339 0.85893
0.17351 0.29662 0.8598
0.235889 0.316411 0.839567
0.320211 0.331106 0.808743
0.418555 0.342672 0.770382
0.5196 0.357015 0.704616
0.559533 0.395773 0.589136
0.559167 0.436973 0.550149
0.651637 0.438315 0.608148
0.151812 0.386709 0.855604
0.153689 0.417578 0.894926
0.212482 0.437369 0.888197
0.299199 0.451835 0.858335
0.399374 0.46334 0.820966
0.509316 0.47277 0.777478
0.60206 0.494835 0.673823
0.622263 0.532525 0.617655
0.727993 0.530098 0.678614
0.222568 0.493812 0.798901
0.222538 0.524666 0.847562
0.247852 0.54934 0.885451
0.298848 0.568689 0.905837
0.393408 0.581033 0.879072
0.504204 0.590585 0.836698
0.624033 0.599985 0.773968
0.687236 0.629007 0.686656
0.81004 0.621881 0.748272
0.342824 0.587671 0.742977
0.362539 0.615076 0.776028
0.391608 0.640085 0.80618
0.425177 0.663798 0.836973
0.461814 0.686412 0.870268
0.518029 0.705013 0.89012
0.665248 0.710338 0.79617
0.753048 0.726818 0.754803
0.897047 0.714931 0.807614
0.470466 0.676417 0.721798
0.510552 0.699763 0.742016
0.553979 0.722438 0.759869
0.601709 0.744121 0.775952
0.652461 0.765133 0.790814
0.705516 0.785672 0.80473
0.767941 0.804379 0.811093
0.824155 0.824186 0.824201
0.929412 0.830274 0.830976
0.582025 0.765866 0.744732
0.625834 0.788495 0.765179
0.669688 0.811124 0.785626
0.713405 0.833646 0.807691
0.757733 0.856031 0.830137
0.803143 0.878202 0.852354
0.849393 0.900206 0.874449
0.896376 0.922103 0.896391
0.943893 0.943954 0.917967
0.518624 0 0.918135
0.527932 0 0.917906
0.579049 0 0.897826
0.652003 0 0.867369
0.694759 0 0.785977
0.670176 0 0.656886
0.58233 0.0610971 0.517296
0.499611 0.129519 0.435904
0.451331 0.180804 0.411902
0.368551 0 0.895384
0.371023 0.01944 0.887358
0.41326 0.0447242 0.854643
0.485222 0.0619669 0.818936
0.568109 0.0780041 0.769604
0.600046 0.117037 0.661509
0.578729 0.172244 0.5514
0.533257 0.229053 0.485863
0.503716 0.274617 0.472633
0.262562 0.130266 0.882368
0.272068 0.162539 0.88072
0.328405 0.18349 0.859495
0.407477 0.1991 0.828305
0.501564 0.211322 0.789792
0.585702 0.230838 0.719173
0.607004 0.273686 0.613947
0.582879 0.325261 0.546914
0.5617 0.368826 0.536568
0.21146 0.257603 0.912657
0.224994 0.289204 0.914183
0.28513 0.309636 0.894652
0.367269 0.324926 0.864698
0.463783 0.336996 0.827268
0.570153 0.347189 0.782376
0.637644 0.375463 0.688289
0.637415 0.421637 0.61326
0.622507 0.464073 0.602579
0.187884 0.379614 0.943999
0.199557 0.410513 0.960693
0.262303 0.430671 0.942321
0.346593 0.445823 0.913375
0.44477 0.457847 0.876905
0.553079 0.46772 0.834409
0.660014 0.480735 0.771282
0.694041 0.518685 0.68481
0.685527 0.560281 0.670298
0.219318 0.49456 0.92134
0.218982 0.525902 0.966659
0.260853 0.547951 0.98613
0.33959 0.563653 0.969741
0.438834 0.575753 0.934279
0.547982 0.585718 0.892805
0.664897 0.594095 0.846159
0.748837 0.617029 0.763668
0.750347 0.657374 0.739391
0.309148 0.596933 0.87393
0.314122 0.627451 0.917357
0.34107 0.652583 0.951568
0.383429 0.674067 0.978637
0.448783 0.690929 0.988769
0.552575 0.701732 0.956664
0.669795 0.710292 0.911162
0.789548 0.71986 0.852354
0.816709 0.755276 0.809689
0.430838 0.690059 0.835569
0.451713 0.717845 0.866606
0.485054 0.74255 0.892607
0.524086 0.765805 0.917189
0.567361 0.7879 0.941482
0.616464 0.808423 0.965103
0.688579 0.824247 0.971923
0.819089 0.832975 0.897047
0.882963 0.854337 0.881041
0.555901 0.779767 0.826459
0.590814 0.804898 0.848417
0.634134 0.827985 0.866835
0.681651 0.85008 0.883543
0.732113 0.871519 0.899046
0.784863 0.892454 0.913619
0.83949 0.913008 0.927428
0.900191 0.932433 0.936492
0.953246 0.953246 0.953246
