resources/Summer.cube
LUT_3D_SIZE 5
0.180285 0.137667 0.163012
0.279911 0.142718 0.165606
0.507652 0.114763 0.141054
0.654032 0.109712 0.135134
0.799283 0.107225 0.131228
0.193637 0.251026 0.170001
0.262577 0.222034 0.200687
0.532723 0.241062 0.15938
0.700481 0.258152 0.17052
0.87422 0.285435 0.189364
0.136522 0.457496 0.117678
0.331044 0.481727 0.150698
0.443519 0.393271 0.141787
0.673686 0.500847 0.144762
0.824491 0.504372 0.145098
0.184604 0.668544 0.151476
0.355413 0.670008 0.161242
0.643091 0.580713 0.161975
0.659175 0.604547 0.136919
0.8065 0.645151 0.128008
0.182193 0.820035 0.145174
0.362005 0.812482 0.147707
0.724743 0.759686 0.157763
0.782635 0.674678 0.155657
0.799863 0.751492 0.226673
0.180545 0.173739 0.2392
0.282628 0.144976 0.24506
0.511193 0.113893 0.219242
0.658457 0.107683 0.212833
0.80441 0.103975 0.208392
0.205493 0.241901 0.241993
0.29572 0.259739 0.255116
0.543832 0.248829 0.244312
0.713558 0.272679 0.259159
0.887892 0.301015 0.278477
0.143038 0.472328 0.209064
0.277455 0.41062 0.224231
0.552758 0.482795 0.256123
0.680034 0.507561 0.227878
0.829648 0.50959 0.227405
0.180026 0.67248 0.238361
0.303899 0.676631 0.247379
0.633204 0.599649 0.281376
0.665614 0.619608 0.220935
0.81149 0.650645 0.210178
0.1729 0.82121 0.239765
0.292668 0.820356 0.23444
0.670008 0.768811 0.248417
0.780026 0.712703 0.252216
0.797894 0.756939 0.300252
0.165606 0.259022 0.443198
0.182559 0.164096 0.451316
0.506447 0.108797 0.425925
0.653925 0.102724 0.420325
0.800748 0.0999771 0.416495
0.174609 0.352438 0.453758
0.281102 0.34818 0.467979
0.544137 0.250004 0.455177
0.71928 0.273182 0.471611
0.892897 0.298817 0.489189
0.142473 0.450614 0.402396
0.202701 0.431556 0.381094
0.517067 0.493996 0.430289
0.713115 0.495766 0.412909
0.825696 0.505074 0.435615
0.176333 0.668864 0.44419
0.28275 0.675578 0.44892
0.544839 0.624537 0.442725
0.694972 0.633936 0.44741
0.80763 0.646433 0.418494
0.165957 0.814969 0.436454
0.273304 0.818067 0.437446
0.505852 0.792905 0.413581
0.744015 0.773678 0.427649
0.795056 0.767758 0.436164
0.166354 0.314534 0.558434
0.179278 0.223346 0.57145
0.480278 0.114992 0.557214
0.656336 0.105379 0.546883
0.803815 0.103075 0.544305
0.180804 0.413993 0.568246
0.285618 0.406287 0.58471
0.510475 0.261921 0.589059
0.72987 0.285344 0.604623
0.901823 0.308217 0.621698
0.145815 0.471031 0.50341
0.257633 0.538018 0.549355
0.511162 0.554192 0.557153
0.679881 0.504906 0.562646
0.827527 0.502937 0.560037
0.180789 0.663996 0.566293
0.282338 0.667308 0.567239
0.483543 0.648859 0.528817
0.661433 0.647532 0.547066
0.843809 0.641688 0.512947
0.172274 0.8206 0.563928
0.281559 0.818998 0.561166
0.499168 0.796307 0.537987
0.651804 0.792157 0.53463
0.796201 0.779385 0.542184
0.166323 0.370962 0.678508
0.178241 0.27834 0.690501
0.403738 0.120989 0.683162
0.64799 0.11693 0.680293
0.813031 0.113039 0.673182
0.178607 0.473304 0.68838
0.289357 0.466529 0.707195
0.433982 0.271168 0.723507
0.718242 0.295109 0.740948
0.908629 0.317449 0.748638
0.161212 0.602686 0.669215
0.26154 0.641611 0.694789
0.502373 0.616053 0.697673
0.622965 0.507622 0.689509
0.828702 0.504601 0.682689
0.179324 0.692042 0.674403
0.189288 0.710567 0.695094
0.480446 0.714137 0.670726
0.65185 0.705028 0.661265
0.81294 0.647776 0.667582
0.18146 0.818586 0.684779
0.297124 0.812512 0.678462
0.500114 0.795605 0.657908
0.634485 0.799695 0.640589
0.797284 0.791745 0.655436
