resources/Summer.cube
LUT_3D_SIZE 9
0.180285 0.137667 0.163012
0.196094 0.149126 0.171588
0.279911 0.142718 0.165606
0.400778 0.126711 0.151888
0.507652 0.114763 0.141054
0.583993 0.110994 0.137057
0.654032 0.109712 0.135134
0.727047 0.108339 0.133104
0.799283 0.107225 0.131228
0.216358 0.181064 0.191638
0.229755 0.189761 0.199008
0.319707 0.186419 0.194583
0.443427 0.171038 0.181338
0.547387 0.161151 0.172686
0.625208 0.158602 0.169894
0.697093 0.159091 0.169436
0.773678 0.161334 0.17026
0.852796 0.167224 0.173892
0.193637 0.251026 0.170001
0.215076 0.260365 0.182437
0.262577 0.222034 0.200687
0.450492 0.240909 0.138811
0.532723 0.241062 0.15938
0.618555 0.247028 0.162982
0.700481 0.258152 0.17052
0.787182 0.271107 0.1794
0.87422 0.285435 0.189364
0.142092 0.342016 0.123812
0.165942 0.359258 0.136217
0.316442 0.340383 0.158206
0.330663 0.28307 0.155489
0.516411 0.363104 0.145617
0.610269 0.378119 0.154131
0.694728 0.392126 0.163561
0.779141 0.402701 0.170642
0.859281 0.409781 0.175082
0.136522 0.457496 0.117678
0.169345 0.483589 0.138003
0.331044 0.481727 0.150698
0.468009 0.442618 0.155779
0.443519 0.393271 0.141787
0.595972 0.493187 0.142718
0.673686 0.500847 0.144762
0.750134 0.503288 0.145251
0.824491 0.504372 0.145098
0.170474 0.578271 0.142367
0.197742 0.598169 0.157626
0.351583 0.590494 0.162203
0.541375 0.561913 0.168353
0.554971 0.469764 0.160342
0.548302 0.496315 0.143954
0.664103 0.574548 0.137652
0.740169 0.577157 0.135866
0.812711 0.576684 0.134234
0.184604 0.668544 0.151476
0.206195 0.681483 0.161318
0.355413 0.670008 0.161242
0.56228 0.636255 0.167788
0.643091 0.580713 0.161975
0.653849 0.554162 0.151324
0.659175 0.604547 0.136919
0.733196 0.643549 0.129473
0.8065 0.645151 0.128008
0.181613 0.743542 0.146807
0.202167 0.753948 0.154726
0.348547 0.741497 0.152712
0.564843 0.706111 0.159686
0.700648 0.687434 0.155535
0.71104 0.620325 0.155337
0.724163 0.61883 0.144152
0.729931 0.673213 0.129046
0.800381 0.71429 0.121874
0.182193 0.820035 0.145174
0.208301 0.826398 0.150195
0.362005 0.812482 0.147707
0.579675 0.778256 0.155703
0.724743 0.759686 0.157763
0.77026 0.724208 0.158602
0.782635 0.674678 0.155657
0.795316 0.688807 0.141329
0.799863 0.751492 0.226673
0.183764 0.143221 0.169787
0.199878 0.153063 0.178668
0.283513 0.145663 0.172168
0.40383 0.128084 0.157595
0.511727 0.114504 0.145754
0.588464 0.110033 0.141482
0.658763 0.10811 0.139254
0.731899 0.10634 0.137102
0.804211 0.105058 0.135271
0.219547 0.184146 0.198093
0.235706 0.196384 0.207279
0.322988 0.19118 0.202182
0.446723 0.176364 0.18909
0.551659 0.166705 0.180194
0.629694 0.164675 0.1776
0.702083 0.165911 0.177539
0.779629 0.16936 0.179095
0.859815 0.176638 0.183597
0.195422 0.256413 0.176654
0.235431 0.222522 0.206012
0.339651 0.249622 0.175601
0.455879 0.246723 0.148013
0.539345 0.248066 0.168841
0.626154 0.2551 0.173175
0.709316 0.267506 0.18172
0.796674 0.281102 0.191135
0.88336 0.295094 0.200839
0.143008 0.349111 0.1299
0.17612 0.349065 0.150912
0.297063 0.289509 0.180926
0.352163 0.305455 0.16054
0.525902 0.373144 0.157183
0.619532 0.38793 0.165698
0.703227 0.401068 0.174487
0.78648 0.410452 0.180621
0.865751 0.416617 0.18439
0.139345 0.466667 0.125383
0.176974 0.489143 0.14995
0.334524 0.487221 0.161425
0.445716 0.420417 0.164355
0.461036 0.41178 0.150378
0.602258 0.499763 0.151598
0.679194 0.506691 0.153277
0.755245 0.50869 0.15346
0.82945 0.509636 0.153201
0.169955 0.584817 0.147555
0.203479 0.603738 0.168338
0.35433 0.595071 0.171603
0.543069 0.564843 0.178027
0.549798 0.468467 0.167529
0.55642 0.505196 0.150546
0.668772 0.579461 0.145296
0.744564 0.581857 0.143496
0.817273 0.581521 0.142046
0.180514 0.672267 0.154101
0.210376 0.686183 0.171298
0.357839 0.674006 0.170489
0.562692 0.63975 0.177417
0.646159 0.586084 0.171984
0.654963 0.557153 0.160403
0.664195 0.610407 0.144732
0.737682 0.64831 0.137118
0.811368 0.650309 0.136019
0.176196 0.74638 0.148791
0.205158 0.7579 0.164691
0.350164 0.74519 0.162219
0.564828 0.710262 0.169833
0.702831 0.692943 0.16733
0.714351 0.626566 0.166461
0.72752 0.623835 0.154818
0.734798 0.678965 0.137591
0.805127 0.719463 0.129854
0.174731 0.822324 0.15169
0.204715 0.829129 0.162036
0.351659 0.816342 0.159838
0.56817 0.783093 0.169772
0.714534 0.76231 0.178698
0.770855 0.736171 0.180468
0.7832 0.682872 0.176944
0.796353 0.691798 0.161364
0.799146 0.753017 0.248753
0.180545 0.173739 0.2392
0.191928 0.180667 0.248356
0.282628 0.144976 0.24506
0.399802 0.128298 0.23151
0.511193 0.113893 0.219242
0.588144 0.109621 0.215137
0.658457 0.107683 0.212833
0.731685 0.105562 0.210422
0.80441 0.103975 0.208392
0.216312 0.215351 0.265629
0.232868 0.226734 0.275868
0.320562 0.190448 0.275334
0.439033 0.175265 0.262776
0.551797 0.162249 0.251591
0.630411 0.159762 0.248844
0.703624 0.160937 0.24889
0.782238 0.164523 0.250767
0.863661 0.172168 0.25568
0.205493 0.241901 0.241993
0.231846 0.222797 0.226993
0.29572 0.259739 0.255116
0.431647 0.251011 0.246143
0.543832 0.248829 0.244312
0.629938 0.259541 0.250263
0.713558 0.272679 0.259159
0.80119 0.286839 0.268788
0.887892 0.301015 0.278477
0.143114 0.350484 0.210468
0.168917 0.362051 0.221164
0.26688 0.309819 0.224521
0.44332 0.355444 0.234012
0.564263 0.372763 0.194415
0.623835 0.392203 0.243015
0.706905 0.404654 0.25153
0.78883 0.412528 0.256596
0.867277 0.417807 0.259678
0.143038 0.472328 0.209064
0.173983 0.495186 0.227909
0.277455 0.41062 0.224231
0.463447 0.409598 0.258259
0.552758 0.482795 0.256123
0.604364 0.501411 0.225452
0.680034 0.507561 0.227878
0.755688 0.50898 0.227878
0.829648 0.50959 0.227405
0.171817 0.587655 0.231693
0.19736 0.605798 0.24828
0.297505 0.57174 0.242924
0.465797 0.51577 0.249607
0.540887 0.48426 0.252888
0.583017 0.538277 0.2206
0.668956 0.580148 0.218036
0.744427 0.581827 0.217456
0.817075 0.581277 0.215946
0.180026 0.67248 0.238361
0.201083 0.686427 0.251469
0.303899 0.676631 0.247379
0.510323 0.648066 0.251057
0.633204 0.599649 0.281376
0.645502 0.575448 0.266117
0.665614 0.619608 0.220935
0.737804 0.649088 0.210971
0.81149 0.650645 0.210178
0.174426 0.745922 0.234058
0.193866 0.75758 0.245212
0.299748 0.748089 0.24097
0.501625 0.722698 0.240543
0.665324 0.697368 0.246937
0.710979 0.6598 0.263706
0.724315 0.638621 0.250217
0.735393 0.687648 0.215808
0.805097 0.720958 0.203891
0.1729 0.82121 0.239765
0.19237 0.828717 0.245411
0.292668 0.820356 0.23444
0.489967 0.79762 0.234394
0.670008 0.768811 0.248417
0.758679 0.764309 0.2533
0.780026 0.712703 0.252216
0.793896 0.698665 0.240192
0.797894 0.756939 0.300252
0.172702 0.216892 0.343679
0.183871 0.223758 0.353399
0.221073 0.143633 0.351873
0.397101 0.125414 0.337469
0.50837 0.110765 0.325734
0.585458 0.106691 0.321706
0.655863 0.104891 0.319493
0.729152 0.102815 0.317082
0.802335 0.101717 0.315435
0.207095 0.259709 0.374273
0.223713 0.269947 0.383291
0.258915 0.188769 0.382345
0.43682 0.172839 0.369085
0.549264 0.159503 0.358328
0.628428 0.157565 0.355962
0.702678 0.159823 0.356817
0.782452 0.164675 0.359579
0.864912 0.173404 0.365316
0.21062 0.26247 0.308446
0.213336 0.295216 0.339391
0.290837 0.303532 0.357733
0.421561 0.252644 0.356268
0.542855 0.248539 0.352407
0.632059 0.257282 0.358068
0.716335 0.270191 0.366934
0.804059 0.283421 0.376059
0.890578 0.296437 0.385016
0.151736 0.327443 0.307515
0.182452 0.307362 0.291188
0.231647 0.311833 0.293538
0.398688 0.368841 0.337301
0.558419 0.371298 0.328771
0.66006 0.38436 0.337621
0.707713 0.403891 0.361089
0.788678 0.412695 0.365347
0.866392 0.417334 0.367864
0.143893 0.474022 0.31667
0.173068 0.497139 0.332753
0.211887 0.449973 0.283162
0.371054 0.449928 0.308644
0.525887 0.485954 0.337255
0.618891 0.498909 0.308995
0.689769 0.504143 0.321279
0.753948 0.506691 0.335424
0.827497 0.506783 0.334615
0.171832 0.587884 0.339376
0.194598 0.604944 0.352316
0.280507 0.589426 0.341176
0.402335 0.52401 0.324147
0.582406 0.549905 0.38854
0.625208 0.565072 0.366644
0.669612 0.577371 0.325612
0.742 0.579156 0.324422
0.81471 0.57847 0.322957
0.177508 0.670146 0.344152
0.19794 0.684184 0.35639
0.288716 0.676539 0.351354
0.474968 0.621698 0.37705
0.621714 0.603754 0.40499
0.644373 0.614862 0.389441
0.700328 0.632776 0.37496
0.736416 0.647181 0.318837
0.809339 0.648447 0.317388
0.171176 0.742855 0.338872
0.190555 0.755108 0.349935
0.285481 0.746715 0.346838
0.457465 0.720607 0.365637
0.618906 0.699474 0.391745
0.702785 0.676234 0.415991
0.71429 0.676585 0.384176
0.746822 0.707073 0.346059
0.802838 0.71957 0.310903
0.169039 0.817746 0.340154
0.187686 0.826444 0.346746
0.278309 0.819242 0.340734
0.40177 0.805341 0.326085
0.590295 0.78349 0.329763
0.707362 0.770474 0.344717
0.776989 0.757412 0.343374
0.789929 0.712993 0.337911
0.795972 0.762448 0.374456
0.165606 0.259022 0.443198
0.176715 0.265522 0.452079
0.182559 0.164096 0.451316
0.363149 0.124788 0.440284
0.506447 0.108797 0.425925
0.58323 0.104234 0.422324
0.653925 0.102724 0.420325
0.727016 0.100481 0.417716
0.800748 0.0999771 0.416495
0.199191 0.301457 0.473411
0.216205 0.311849 0.48217
0.224857 0.213062 0.480583
0.401953 0.171557 0.47155
0.547677 0.157839 0.458732
0.627115 0.15613 0.457313
0.702312 0.159365 0.4589
0.783444 0.165637 0.462715
0.867216 0.175753 0.46952
0.174609 0.352438 0.453758
0.190341 0.367254 0.465614
0.281102 0.34818 0.467979
0.373709 0.253819 0.4598
0.544137 0.250004 0.455177
0.634272 0.259556 0.462181
0.71928 0.273182 0.471611
0.806958 0.286381 0.480705
0.892897 0.298817 0.489189
0.164157 0.32285 0.363409
0.17406 0.341527 0.379629
0.236194 0.395468 0.424109
0.396368 0.417044 0.443931
0.535637 0.381384 0.447425
0.627848 0.393606 0.455787
0.709087 0.403006 0.462074
0.789151 0.408453 0.465293
0.866224 0.411475 0.466758
0.142473 0.450614 0.402396
0.161151 0.448112 0.398993
0.202701 0.431556 0.381094
0.344137 0.465232 0.400748
0.517067 0.493996 0.430289
0.623362 0.494301 0.41352
0.713115 0.495766 0.412909
0.775784 0.499748 0.423301
0.825696 0.505074 0.435615
0.172473 0.587366 0.44065
0.194385 0.603494 0.452811
0.267353 0.587366 0.435966
0.322637 0.544793 0.376028
0.490593 0.549584 0.40734
0.591821 0.56669 0.425452
0.680674 0.574014 0.405478
0.775067 0.571725 0.383246
0.812711 0.57586 0.423819
0.176333 0.668864 0.44419
0.19498 0.6822 0.454459
0.28275 0.675578 0.44892
0.395865 0.658076 0.429465
0.544839 0.624537 0.442725
0.670802 0.620417 0.470787
0.694972 0.633936 0.44741
0.742077 0.644541 0.411063
0.80763 0.646433 0.418494
0.168841 0.74049 0.438361
0.186603 0.752834 0.447868
0.2757 0.746441 0.442603
0.427512 0.725277 0.439628
0.573648 0.70547 0.46125
0.700145 0.671717 0.486061
0.730648 0.693141 0.494804
0.754849 0.704967 0.512261
0.801038 0.71809 0.411917
0.165957 0.814969 0.436454
0.184085 0.824735 0.443717
0.273304 0.818067 0.437446
0.390478 0.804761 0.425986
0.505852 0.792905 0.413581
0.635813 0.78407 0.41976
0.744015 0.773678 0.427649
0.786145 0.738018 0.427558
0.795056 0.767758 0.436164
0.166094 0.288106 0.502998
0.176638 0.294087 0.511788
0.180194 0.195773 0.514839
0.317433 0.126787 0.507988
0.502251 0.111406 0.496452
0.58439 0.105562 0.489006
0.654154 0.102937 0.486839
0.727596 0.101045 0.484504
0.801785 0.101015 0.483619
0.199908 0.330007 0.532082
0.2168 0.340414 0.541009
0.222614 0.244694 0.54406
0.355459 0.173083 0.53846
0.542733 0.159869 0.528771
0.629053 0.158328 0.524559
0.704845 0.16202 0.52726
0.787182 0.169528 0.532052
0.871794 0.180545 0.539452
0.180087 0.385367 0.512703
0.19707 0.39913 0.523964
0.281758 0.378897 0.531899
0.331746 0.257984 0.528572
0.537652 0.255146 0.526467
0.639109 0.265156 0.531762
0.724376 0.278569 0.542016
0.812039 0.291768 0.551064
0.897078 0.303243 0.558816
0.152132 0.402197 0.468116
0.174319 0.431037 0.489769
0.256046 0.465476 0.5131
0.395346 0.453544 0.521401
0.518532 0.388724 0.51931
0.632166 0.39826 0.525124
0.711727 0.406058 0.530709
0.791104 0.410513 0.53315
0.867674 0.412955 0.534173
0.138796 0.414496 0.430121
0.161486 0.436881 0.446754
0.218616 0.466011 0.466255
0.355169 0.517464 0.491447
0.516915 0.524605 0.496956
0.607904 0.498894 0.500145
0.687022 0.501122 0.50071
0.765774 0.49955 0.498329
0.826627 0.502022 0.500298
0.172824 0.568856 0.493248
0.190356 0.571466 0.494759
0.238392 0.545785 0.472953
0.319524 0.545174 0.46067
0.486763 0.55993 0.472267
0.593484 0.575433 0.492363
0.684245 0.573297 0.469337
0.775311 0.569543 0.463874
0.83711 0.571237 0.47454
0.178149 0.670344 0.511833
0.196231 0.682506 0.520928
0.283574 0.675166 0.514275
0.38407 0.660929 0.493614
0.494987 0.641352 0.473732
0.591348 0.641688 0.488014
0.664088 0.643595 0.490349
0.746487 0.645121 0.470451
0.841459 0.642222 0.442847
0.169879 0.741482 0.504494
0.187503 0.753323 0.513481
0.275883 0.747005 0.507774
0.39585 0.732601 0.495689
0.505821 0.721752 0.481102
0.627405 0.707805 0.510399
0.73164 0.694026 0.545251
0.748684 0.708766 0.540658
0.80325 0.718715 0.473869
0.167758 0.816648 0.502419
0.185962 0.82562 0.509117
0.274205 0.818723 0.502647
0.389502 0.805722 0.49131
0.499809 0.794263 0.480751
0.581231 0.791821 0.47602
0.70312 0.783001 0.483848
0.78529 0.766171 0.486854
0.795544 0.773449 0.488777
0.166354 0.314534 0.558434
0.176577 0.319936 0.566964
0.179278 0.223346 0.57145
0.277729 0.12903 0.568109
0.480278 0.114992 0.557214
0.586114 0.109514 0.553643
0.656336 0.105379 0.546883
0.728908 0.102388 0.544671
0.803815 0.103075 0.544305
0.200092 0.355856 0.586603
0.217456 0.366369 0.595239
0.221332 0.27155 0.600488
0.315373 0.175204 0.59826
0.519371 0.162737 0.588617
0.63035 0.162219 0.588891
0.70901 0.166766 0.588846
0.791699 0.174289 0.594705
0.877241 0.186297 0.602884
0.180804 0.413993 0.568246
0.199313 0.427863 0.579187
0.285618 0.406287 0.58471
0.302449 0.263325 0.590066
0.510475 0.261921 0.589059
0.640299 0.272221 0.597345
0.72987 0.285344 0.604623
0.817365 0.297368 0.614374
0.901823 0.308217 0.621698
0.151965 0.46038 0.54139
0.179614 0.485451 0.559853
0.270909 0.502083 0.570138
0.397238 0.485756 0.586603
0.481651 0.395071 0.582284
0.625879 0.403204 0.588586
0.714977 0.409766 0.591623
0.7935 0.412955 0.594156
0.869459 0.414801 0.594644
0.145815 0.471031 0.50341
0.173251 0.503319 0.527352
0.257633 0.538018 0.549355
0.373541 0.572137 0.564599
0.511162 0.554192 0.557153
0.580972 0.50396 0.562676
0.679881 0.504906 0.562646
0.754284 0.503975 0.561669
0.827527 0.502937 0.560037
0.160006 0.526406 0.501945
0.181933 0.546715 0.517128
0.240528 0.557412 0.523919
0.335653 0.572839 0.528725
0.484443 0.59649 0.532601
0.592523 0.60119 0.549462
0.683009 0.572824 0.541482
0.76466 0.570565 0.540475
0.841398 0.567926 0.538155
0.180789 0.663996 0.566293
0.198154 0.675319 0.57467
0.282338 0.667308 0.567239
0.37525 0.651301 0.547601
0.483543 0.648859 0.528817
0.589441 0.645747 0.545876
0.661433 0.647532 0.547066
0.753399 0.645106 0.521584
0.843809 0.641688 0.512947
0.171939 0.743389 0.565148
0.189563 0.754253 0.573251
0.278569 0.747555 0.566964
0.395331 0.734478 0.554604
0.490425 0.728298 0.531685
0.582574 0.721508 0.537453
0.664393 0.7178 0.545754
0.735332 0.716945 0.55198
0.807706 0.71957 0.52697
0.172274 0.8206 0.563928
0.192172 0.826993 0.568582
0.281559 0.818998 0.561166
0.394171 0.806226 0.549889
0.499168 0.796307 0.537987
0.574487 0.794827 0.53283
0.651804 0.792157 0.53463
0.770871 0.782559 0.541268
0.796201 0.779385 0.542184
0.166049 0.342535 0.618448
0.175906 0.347127 0.626703
0.178408 0.251011 0.631022
0.240681 0.131624 0.630808
0.444541 0.117708 0.620295
0.569772 0.114061 0.617487
0.659998 0.110262 0.615503
0.732372 0.106264 0.608179
0.805936 0.105303 0.607645
0.198901 0.383383 0.646494
0.216403 0.393393 0.654704
0.220142 0.298955 0.659663
0.278111 0.177432 0.660517
0.483391 0.165957 0.651774
0.613535 0.167132 0.652689
0.713695 0.173236 0.658305
0.797894 0.181338 0.660365
0.882628 0.191959 0.668818
0.179507 0.443931 0.628611
0.199023 0.458122 0.639963
0.289525 0.435157 0.640986
0.301259 0.296407 0.651362
0.471809 0.268864 0.653956
0.619989 0.279637 0.662562
0.732311 0.292546 0.673289
0.822065 0.303746 0.678843
0.905943 0.312535 0.686625
0.153811 0.502037 0.604685
0.182315 0.527306 0.623362
0.280949 0.538399 0.630762
0.402975 0.51783 0.647425
0.448585 0.400992 0.647257
0.591836 0.407645 0.652369
0.710018 0.413031 0.656931
0.795209 0.415396 0.656229
0.870939 0.416342 0.657465
0.155612 0.547082 0.594293
0.183825 0.576486 0.616663
0.277913 0.597772 0.626062
0.384436 0.607889 0.626047
0.505302 0.583795 0.626978
0.541985 0.50663 0.625696
0.664729 0.506386 0.625803
0.755184 0.50515 0.623285
0.828107 0.503502 0.62211
0.164797 0.559045 0.561242
0.186725 0.58381 0.580484
0.256992 0.604425 0.595193
0.368704 0.623392 0.604288
0.487831 0.645563 0.607996
0.583764 0.631449 0.609201
0.639521 0.578744 0.615564
0.742184 0.576944 0.612329
0.816205 0.574975 0.610666
0.180072 0.663066 0.610819
0.196475 0.676234 0.620798
0.276921 0.675792 0.619058
0.385 0.671305 0.611383
0.482658 0.676249 0.600443
0.57116 0.682734 0.595544
0.659876 0.67422 0.606714
0.755581 0.644068 0.593744
0.839658 0.640436 0.590829
0.174517 0.737713 0.622889
0.191943 0.747814 0.63035
0.280461 0.74229 0.624933
0.395651 0.730144 0.613443
0.485206 0.728206 0.595697
0.564675 0.727611 0.58587
0.656809 0.720394 0.602502
0.730297 0.720623 0.60209
0.816403 0.719326 0.579309
0.176394 0.823819 0.628031
0.19971 0.827756 0.630732
0.288594 0.818952 0.62269
0.399603 0.806256 0.61146
0.498863 0.798123 0.598718
0.566445 0.799542 0.587121
0.646662 0.795041 0.592065
0.724865 0.791852 0.595453
0.796765 0.785519 0.598642
0.166323 0.370962 0.678508
0.175753 0.374472 0.68632
0.178241 0.27834 0.690501
0.208026 0.13463 0.693385
0.403738 0.120989 0.683162
0.541222 0.117891 0.680766
0.64799 0.11693 0.680293
0.740429 0.113939 0.678874
0.813031 0.113039 0.673182
0.197864 0.410803 0.705928
0.210819 0.419028 0.716564
0.214878 0.325872 0.721477
0.240208 0.174868 0.724743
0.439246 0.163851 0.715679
0.581857 0.165148 0.716091
0.697261 0.171756 0.720867
0.801343 0.181369 0.728054
0.890303 0.200763 0.734813
0.178607 0.473304 0.68838
0.197131 0.487175 0.704204
0.289357 0.466529 0.707195
0.30016 0.326589 0.718151
0.433982 0.271168 0.723507
0.58883 0.28249 0.731258
0.718242 0.295109 0.740948
0.827695 0.305455 0.749065
0.908629 0.317449 0.748638
0.156863 0.542321 0.668009
0.178531 0.564385 0.68867
0.278248 0.576501 0.69897
0.411826 0.552544 0.70808
0.43122 0.41857 0.714137
0.550912 0.410727 0.719005
0.683207 0.414633 0.721813
0.794202 0.416129 0.723079
0.8719 0.418448 0.718212
0.161212 0.602686 0.669215
0.174258 0.619501 0.685405
0.26154 0.641611 0.694789
0.391119 0.642359 0.688396
0.502373 0.616053 0.697673
0.527901 0.527703 0.688228
0.622965 0.507622 0.689509
0.746746 0.505592 0.687831
0.828702 0.504601 0.682689
0.173281 0.629328 0.653956
0.173846 0.636332 0.663279
0.182849 0.660395 0.691066
0.37348 0.678767 0.68571
0.483177 0.680598 0.679026
0.577752 0.661204 0.677516
0.600748 0.580362 0.678096
0.725658 0.577646 0.675715
0.815656 0.576349 0.671687
0.179324 0.692042 0.674403
0.179324 0.695384 0.679149
0.189288 0.710567 0.695094
0.358572 0.709117 0.684504
0.480446 0.714137 0.670726
0.562448 0.719112 0.662593
0.65185 0.705028 0.661265
0.708217 0.64918 0.67068
0.81294 0.647776 0.667582
0.174105 0.753399 0.682475
0.184878 0.762173 0.689296
0.26949 0.760342 0.686244
0.391485 0.749584 0.67512
0.487816 0.747372 0.663371
0.558267 0.752972 0.654337
0.641245 0.756298 0.649363
0.72874 0.747478 0.661189
0.822446 0.717418 0.643809
0.18146 0.818586 0.684779
0.208988 0.820584 0.685878
0.297124 0.812512 0.678462
0.405997 0.801465 0.668528
0.500114 0.795605 0.657908
0.560464 0.80029 0.647227
0.634485 0.799695 0.640589
0.725109 0.791928 0.65658
0.797284 0.791745 0.655436
