resources/Summer.cube
LUT_3D_SIZE 33
0.180285 0.137667 0.163012
0.18381 0.140505 0.165179
0.187304 0.143389 0.1673
0.191241 0.146578 0.169741
0.196094 0.149126 0.171588
0.206867 0.150332 0.172381
0.224872 0.149386 0.171389
0.25008 0.146792 0.1691
0.279911 0.142718 0.165606
0.310048 0.138842 0.16231
0.338338 0.135286 0.159258
0.368277 0.131243 0.155764
0.400778 0.126711 0.151888
0.428977 0.123201 0.148608
0.457755 0.119738 0.14551
0.484306 0.116777 0.14287
0.507652 0.114763 0.141054
0.528435 0.113252 0.13959
0.547753 0.112169 0.138445
0.566171 0.111482 0.137697
0.583993 0.110994 0.137057
0.601572 0.11075 0.13666
0.618753 0.110369 0.13611
0.636316 0.11017 0.135744
0.654032 0.109712 0.135134
0.672221 0.109224 0.134493
0.690654 0.109041 0.134127
0.708751 0.108568 0.133501
0.727047 0.108339 0.133104
0.745098 0.107912 0.132509
0.76318 0.107591 0.132006
0.78143 0.107469 0.13167
0.799283 0.107225 0.131228
0.189517 0.148241 0.170367
0.192309 0.150347 0.172
0.196857 0.15433 0.174884
0.200519 0.157305 0.177127
0.205524 0.159945 0.179126
0.216114 0.160922 0.179721
0.234165 0.159991 0.178805
0.259556 0.157321 0.176547
0.289631 0.15314 0.173037
0.319875 0.149126 0.169696
0.348226 0.145403 0.166567
0.378378 0.141436 0.163272
0.41088 0.136706 0.159274
0.438804 0.133623 0.15642
0.467491 0.130022 0.153262
0.494011 0.127047 0.150591
0.517372 0.125124 0.148806
0.538247 0.12369 0.147417
0.557931 0.122942 0.146609
0.576455 0.122362 0.145892
0.594461 0.122042 0.145418
0.611887 0.121691 0.1449
0.629175 0.121386 0.144411
0.646815 0.121309 0.144137
0.664668 0.120974 0.143618
0.683177 0.120806 0.143267
0.70135 0.120363 0.142657
0.719493 0.119966 0.142092
0.737835 0.119783 0.141726
0.755962 0.119387 0.141161
0.774243 0.11931 0.140856
0.792569 0.119265 0.140566
0.810681 0.119295 0.140322
0.198962 0.159121 0.17789
0.202396 0.161303 0.17966
0.204685 0.163409 0.181247
0.209751 0.167926 0.184466
0.214786 0.170626 0.186496
0.225391 0.171618 0.187121
0.243702 0.170901 0.186389
0.269154 0.167987 0.183886
0.299626 0.163943 0.18056
0.3299 0.159808 0.177066
0.358587 0.156313 0.174136
0.388769 0.152255 0.170657
0.421485 0.147662 0.166781
0.448676 0.144778 0.164141
0.477333 0.141268 0.161105
0.504173 0.138537 0.158724
0.527535 0.136492 0.156893
0.548623 0.135241 0.155718
0.568353 0.134478 0.15491
0.586877 0.133822 0.154177
0.60499 0.133577 0.153826
0.622477 0.133227 0.153338
0.64004 0.13315 0.153109
0.657633 0.132982 0.152758
0.675502 0.132601 0.152255
0.693965 0.132342 0.151873
0.7122 0.131899 0.151308
0.730495 0.13164 0.150896
0.749035 0.13164 0.150652
0.76759 0.131731 0.150454
0.78613 0.131899 0.150362
0.804593 0.132006 0.150179
0.822995 0.132357 0.150179
0.208209 0.169863 0.185214
0.212238 0.172534 0.187427
0.214786 0.17409 0.188785
0.21738 0.176806 0.190707
0.223835 0.181231 0.193744
0.234974 0.182727 0.194751
0.253147 0.181811 0.193851
0.279088 0.178866 0.191394
0.309804 0.174838 0.187991
0.340291 0.170703 0.184512
0.369299 0.167452 0.181735
0.399695 0.163516 0.178332
0.432685 0.159136 0.174624
0.458946 0.15639 0.172137
0.48748 0.153017 0.169192
0.514427 0.150378 0.166918
0.538018 0.148562 0.16524
0.559258 0.147417 0.164172
0.578882 0.146578 0.163287
0.597436 0.145983 0.1626
0.615579 0.145769 0.162264
0.633143 0.145464 0.161822
0.650858 0.145586 0.161746
0.668406 0.145342 0.161349
0.686458 0.145144 0.160983
0.705119 0.145113 0.160769
0.723674 0.145006 0.160464
0.742229 0.145006 0.160235
0.761181 0.145357 0.160327
0.779965 0.145647 0.160311
0.798947 0.146258 0.160555
0.818158 0.147097 0.160967
0.837247 0.148104 0.161547
0.216358 0.181064 0.191638
0.220447 0.183932 0.193927
0.224506 0.18645 0.196124
0.227207 0.187716 0.197513
0.229755 0.189761 0.199008
0.242374 0.193698 0.201129
0.261677 0.193317 0.200488
0.288792 0.190478 0.198077
0.319707 0.186419 0.194583
0.350698 0.182605 0.191318
0.379721 0.179232 0.188373
0.410269 0.175311 0.185
0.443427 0.171038 0.181338
0.46862 0.168673 0.179294
0.496803 0.16553 0.176577
0.523903 0.163043 0.174411
0.547387 0.161151 0.172686
0.568719 0.160128 0.171695
0.588357 0.159289 0.170809
0.606973 0.158755 0.170199
0.625208 0.158602 0.169894
0.643076 0.158663 0.169726
0.660945 0.158938 0.169757
0.678813 0.159014 0.169604
0.697093 0.159091 0.169436
0.715953 0.159258 0.16936
0.735195 0.159899 0.169635
0.754391 0.160555 0.169909
0.773678 0.161334 0.17026
0.793027 0.162158 0.170687
0.81268 0.163439 0.171481
0.832578 0.165011 0.172457
0.852796 0.167224 0.173892
0.219699 0.194553 0.194049
0.223667 0.197299 0.196307
0.227985 0.200183 0.198779
0.232029 0.202319 0.200885
0.235233 0.198352 0.201953
0.238239 0.198398 0.202533
0.263249 0.206409 0.203357
0.296025 0.203357 0.199176
0.327779 0.199619 0.195758
0.358999 0.195926 0.192584
0.388037 0.192523 0.189639
0.418647 0.188693 0.186297
0.451865 0.184451 0.182712
0.475868 0.182528 0.18146
0.501167 0.180438 0.179904
0.528038 0.177768 0.177539
0.551568 0.175921 0.175845
0.573007 0.175006 0.174945
0.592859 0.174395 0.174243
0.611902 0.174319 0.173953
0.630457 0.174517 0.173922
0.648432 0.17467 0.173816
0.666438 0.175113 0.173938
0.684962 0.175906 0.174334
0.703975 0.17673 0.174762
0.723598 0.177691 0.175296
0.743099 0.178576 0.175738
0.762829 0.179812 0.17644
0.782971 0.181476 0.177478
0.803372 0.183444 0.178775
0.823758 0.185534 0.180117
0.844495 0.187976 0.181765
0.865034 0.190509 0.183474
0.216693 0.210437 0.191104
0.220844 0.213016 0.193561
0.225208 0.215778 0.19617
0.22945 0.218326 0.19855
0.235569 0.214603 0.201678
0.240406 0.205478 0.203601
0.246143 0.206302 0.203952
0.291829 0.217563 0.194263
0.332906 0.21413 0.186847
0.366339 0.210422 0.183627
0.396063 0.206989 0.180926
0.426917 0.203281 0.178088
0.460121 0.199191 0.174884
0.487556 0.196338 0.17351
0.498527 0.197879 0.177447
0.52575 0.195544 0.175372
0.549645 0.194049 0.173968
0.571298 0.193393 0.173251
0.591531 0.193194 0.172854
0.610895 0.193439 0.172808
0.629831 0.19408 0.173068
0.648707 0.195163 0.173709
0.667262 0.19617 0.174243
0.686168 0.19736 0.17496
0.705974 0.199039 0.176013
0.726329 0.200824 0.177127
0.746899 0.202808 0.178439
0.767437 0.204883 0.179782
0.788128 0.207141 0.181262
0.809323 0.209949 0.1832
0.830472 0.212879 0.185183
0.851774 0.215915 0.187274
0.872786 0.218967 0.189349
0.20763 0.229511 0.183062
0.2121 0.232303 0.185779
0.216571 0.234836 0.18851
0.221424 0.23711 0.191485
0.227695 0.239033 0.193896
0.240375 0.227176 0.200076
0.247959 0.213123 0.204074
0.253574 0.213535 0.203372
0.312642 0.229847 0.180545
0.356298 0.228931 0.170108
0.392172 0.225711 0.164324
0.426886 0.221637 0.160739
0.463188 0.217121 0.157305
0.498695 0.212573 0.153994
0.49305 0.218051 0.169146
0.517906 0.216739 0.168612
0.54229 0.215793 0.167605
0.564584 0.215793 0.167346
0.585367 0.216175 0.167391
0.605371 0.21709 0.167895
0.624826 0.218265 0.168582
0.644266 0.219974 0.169665
0.664027 0.222263 0.171176
0.68397 0.224567 0.172717
0.704265 0.226764 0.174166
0.72517 0.229084 0.175708
0.746365 0.231754 0.177508
0.767636 0.234668 0.179477
0.78912 0.23772 0.181552
0.81059 0.240848 0.183703
0.832074 0.244099 0.185946
0.853742 0.247517 0.188342
0.875273 0.251133 0.190845
0.193637 0.251026 0.170001
0.198108 0.254017 0.172625
0.202579 0.256764 0.175265
0.207843 0.259266 0.178744
0.215076 0.260365 0.182437
0.231205 0.258793 0.186023
0.249332 0.240558 0.195636
0.257008 0.222431 0.202838
0.262577 0.222034 0.200687
0.327062 0.242206 0.165911
0.371923 0.247807 0.150286
0.410315 0.245289 0.14403
0.450492 0.240909 0.138811
0.490135 0.236164 0.134295
0.510872 0.235889 0.141344
0.507744 0.241382 0.159991
0.532723 0.241062 0.15938
0.555489 0.241566 0.159487
0.577188 0.242924 0.160266
0.598245 0.244923 0.161608
0.618555 0.247028 0.162982
0.638621 0.249424 0.164538
0.658793 0.25214 0.166384
0.679347 0.255116 0.168399
0.700481 0.258152 0.17052
0.721996 0.261158 0.172564
0.743603 0.264256 0.174701
0.76553 0.267826 0.177203
0.787182 0.271107 0.1794
0.809079 0.274647 0.181903
0.830854 0.278248 0.18439
0.852628 0.281773 0.186847
0.87422 0.285435 0.189364
0.17998 0.272557 0.157931
0.184512 0.275807 0.160571
0.188876 0.278798 0.163088
0.193378 0.281529 0.165621
0.200336 0.283497 0.168292
0.217807 0.282536 0.172717
0.24538 0.274754 0.177646
0.26421 0.252979 0.189166
0.275273 0.236835 0.194995
0.281819 0.235157 0.186099
0.33817 0.260136 0.153414
0.387121 0.269383 0.1355
0.432227 0.266911 0.125994
0.474662 0.263539 0.120378
0.512963 0.260594 0.11751
0.501183 0.268009 0.152438
0.525994 0.269017 0.153552
0.549645 0.270436 0.154284
0.571908 0.272389 0.155474
0.593439 0.274952 0.157153
0.614755 0.278065 0.159335
0.635554 0.281239 0.161501
0.656229 0.284504 0.163775
0.67715 0.287861 0.166079
0.698436 0.291081 0.168292
0.720531 0.294667 0.170794
0.742641 0.29836 0.173358
0.764584 0.301915 0.175845
0.786297 0.305257 0.178088
0.808103 0.308751 0.180545
0.829816 0.312245 0.182956
0.851713 0.315892 0.185519
0.873075 0.319295 0.187854
0.168048 0.293751 0.147219
0.17261 0.297322 0.149859
0.177035 0.300679 0.152438
0.181765 0.303731 0.155123
0.1888 0.306294 0.157748
0.206027 0.306371 0.160342
0.238605 0.302022 0.166232
0.27039 0.287984 0.171679
0.283238 0.265629 0.181094
0.295781 0.245197 0.17615
0.298466 0.249302 0.169665
0.348455 0.279744 0.149905
0.408972 0.292988 0.128161
0.458564 0.292241 0.115129
0.502739 0.290867 0.108385
0.502281 0.295949 0.143938
0.523018 0.298451 0.150866
0.547509 0.300801 0.152224
0.570642 0.303639 0.154025
0.592676 0.306752 0.156024
0.61416 0.310079 0.158312
0.63534 0.313649 0.160784
0.656489 0.317388 0.163409
0.677775 0.321126 0.166018
0.699321 0.324681 0.168444
0.721492 0.328359 0.171023
0.743374 0.331792 0.173373
0.765209 0.335241 0.175784
0.786816 0.338491 0.177966
0.808499 0.341817 0.180285
0.830106 0.34522 0.18262
0.851255 0.348104 0.184619
0.872068 0.350942 0.186526
0.155581 0.316732 0.136004
0.160235 0.320424 0.138674
0.164996 0.324193 0.141512
0.170092 0.32784 0.144396
0.177752 0.331212 0.147387
0.195514 0.33225 0.149767
0.230488 0.327977 0.157504
0.275578 0.3205 0.161517
0.301228 0.30106 0.167361
0.306889 0.278828 0.172503
0.312581 0.252644 0.163775
0.312261 0.264576 0.161761
0.366964 0.299916 0.146822
0.433829 0.319905 0.126955
0.483452 0.32224 0.110872
0.500465 0.326818 0.136751
0.520455 0.330251 0.14844
0.545647 0.333318 0.150332
0.569192 0.336614 0.152438
0.59147 0.340078 0.15462
0.613382 0.343832 0.157153
0.634745 0.347631 0.159716
0.655879 0.35137 0.162325
0.677211 0.355169 0.164981
0.698665 0.358633 0.167346
0.720562 0.36202 0.16968
0.742229 0.365255 0.171893
0.763653 0.368261 0.173968
0.784939 0.371145 0.175906
0.806058 0.373892 0.177737
0.826978 0.376577 0.179522
0.8477 0.378988 0.181155
0.867842 0.381109 0.182544
0.142092 0.342016 0.123812
0.147311 0.346532 0.126879
0.152255 0.350759 0.129763
0.157656 0.355001 0.132845
0.165942 0.359258 0.136217
0.185855 0.360571 0.140978
0.221897 0.357778 0.148013
0.270283 0.351736 0.153597
0.316442 0.340383 0.158206
0.333059 0.317449 0.162158
0.329885 0.28838 0.164385
0.330922 0.264317 0.15407
0.330663 0.28307 0.155489
0.390646 0.324483 0.144167
0.456947 0.35079 0.12958
0.490837 0.357717 0.136934
0.516411 0.363104 0.145617
0.542519 0.367529 0.147402
0.566125 0.370962 0.149523
0.588418 0.374411 0.151675
0.610269 0.378119 0.154131
0.631647 0.381949 0.156725
0.652934 0.385901 0.159411
0.673869 0.389288 0.161715
0.694728 0.392126 0.163561
0.71603 0.394873 0.165423
0.737224 0.397589 0.167224
0.758282 0.400229 0.169009
0.779141 0.402701 0.170642
0.799466 0.404639 0.171862
0.819593 0.406424 0.173022
0.839628 0.408148 0.17409
0.859281 0.409781 0.175082
0.132586 0.368429 0.115511
0.139086 0.373587 0.119799
0.145418 0.378607 0.12401
0.152346 0.383871 0.128573
0.161456 0.388418 0.132769
0.180362 0.390997 0.136385
0.21529 0.390127 0.141161
0.265766 0.385245 0.147356
0.31986 0.377111 0.151858
0.355016 0.363302 0.155184
0.36495 0.339269 0.157824
0.351385 0.298512 0.157641
0.35172 0.283375 0.149584
0.354284 0.306294 0.151278
0.417456 0.352682 0.141527
0.478614 0.384527 0.138888
0.510979 0.393805 0.142824
0.537957 0.399512 0.144289
0.562615 0.4047 0.146395
0.585 0.408316 0.148455
0.606622 0.411933 0.150713
0.627375 0.415198 0.152804
0.647852 0.418341 0.154803
0.668406 0.421347 0.156771
0.689097 0.424048 0.158465
0.709819 0.42623 0.159854
0.730388 0.428305 0.161166
0.750561 0.430045 0.162219
0.770672 0.431693 0.163226
0.7906 0.433188 0.164157
0.810117 0.434394 0.164813
0.829435 0.435386 0.165316
0.848814 0.436667 0.166094
0.130434 0.39646 0.113863
0.137301 0.402258 0.118456
0.144167 0.408072 0.12311
0.151507 0.414054 0.127993
0.161059 0.419471 0.132494
0.179736 0.423087 0.135775
0.213275 0.423804 0.138888
0.263935 0.420127 0.143587
0.320943 0.412573 0.148196
0.368978 0.4056 0.152255
0.391714 0.389395 0.153857
0.394934 0.362234 0.155154
0.376333 0.317006 0.153567
0.377752 0.307195 0.146899
0.381964 0.333196 0.147051
0.445472 0.383597 0.139773
0.502449 0.418524 0.140688
0.533516 0.429252 0.142199
0.558389 0.434638 0.143694
0.581537 0.439612 0.145449
0.602853 0.443137 0.147295
0.623148 0.445975 0.149004
0.642985 0.448463 0.150484
0.662654 0.450599 0.15172
0.682643 0.452537 0.15285
0.703059 0.454459 0.153948
0.723018 0.455879 0.154696
0.742626 0.457023 0.155276
0.762005 0.457923 0.155703
0.781338 0.458808 0.156146
0.800656 0.4598 0.15668
0.819898 0.46067 0.157107
0.838544 0.46125 0.157275
0.131777 0.426169 0.114595
0.139422 0.432929 0.11986
0.146502 0.439155 0.124712
0.153979 0.44538 0.129656
0.163943 0.451331 0.134447
0.182956 0.45565 0.137987
0.215778 0.457374 0.140581
0.265415 0.454765 0.143481
0.325093 0.448157 0.148135
0.376257 0.441306 0.152712
0.413611 0.434821 0.154681
0.428321 0.416495 0.15433
0.42182 0.381308 0.15436
0.404044 0.337972 0.150378
0.407263 0.334997 0.144625
0.412619 0.363088 0.143664
0.472938 0.414252 0.139788
0.524575 0.449699 0.140429
0.554437 0.46128 0.141833
0.577691 0.466117 0.143252
0.599268 0.470176 0.144427
0.619501 0.473121 0.145617
0.638773 0.475074 0.1467
0.658122 0.476905 0.147692
0.677424 0.478141 0.148257
0.697002 0.479149 0.148669
0.716472 0.480095 0.14902
0.73579 0.480949 0.149355
0.755093 0.481773 0.149691
0.774182 0.482444 0.14992
0.792966 0.482887 0.149996
0.81181 0.48336 0.150134
0.830457 0.483848 0.150301
0.136522 0.457496 0.117678
0.144457 0.464652 0.123186
0.151644 0.471077 0.128145
0.159365 0.477623 0.133272
0.169345 0.483589 0.138003
0.188891 0.488228 0.14197
0.221332 0.489876 0.144472
0.270207 0.487694 0.146609
0.331044 0.481727 0.150698
0.384939 0.474891 0.155444
0.426993 0.469871 0.158251
0.45684 0.461753 0.158297
0.468009 0.442618 0.155779
0.449683 0.397803 0.154452
0.435279 0.361273 0.148363
0.437873 0.365667 0.143435
0.443519 0.393271 0.141787
0.499367 0.44361 0.13994
0.54612 0.477531 0.140993
0.574609 0.489342 0.141817
0.595972 0.493187 0.142718
0.616403 0.49633 0.143404
0.635904 0.498634 0.143954
0.654749 0.499931 0.144442
0.673686 0.500847 0.144762
0.693004 0.50164 0.145022
0.712123 0.502235 0.145129
0.731075 0.502724 0.145144
0.750134 0.503288 0.145251
0.7691 0.503792 0.145434
0.787686 0.504005 0.145312
0.806149 0.504112 0.145129
0.824491 0.504372 0.145098
0.144244 0.489219 0.123201
0.152224 0.496391 0.128695
0.159167 0.502602 0.133455
0.16672 0.509041 0.13846
0.17705 0.515297 0.143359
0.196262 0.519615 0.146929
0.22855 0.521172 0.14931
0.276814 0.518807 0.151141
0.337606 0.513115 0.154528
0.393469 0.505638 0.158984
0.437049 0.500084 0.16199
0.476097 0.49604 0.163027
0.498726 0.484565 0.160769
0.492439 0.450782 0.159075
0.475837 0.410513 0.155032
0.465141 0.384176 0.147066
0.466651 0.39707 0.144244
0.472999 0.422263 0.142138
0.523491 0.469459 0.141161
0.565881 0.500908 0.141283
0.593378 0.513405 0.141329
0.613306 0.516426 0.141726
0.633005 0.518853 0.142138
0.652399 0.520806 0.14229
0.67129 0.521706 0.142351
0.690257 0.522179 0.14229
0.709255 0.522667 0.142321
0.728099 0.523079 0.142336
0.746715 0.523186 0.142107
0.76527 0.523293 0.141924
0.783871 0.523552 0.141894
0.802213 0.523537 0.141604
0.820401 0.523644 0.141421
0.153445 0.520729 0.129931
0.161089 0.527642 0.135134
0.167834 0.5337 0.139757
0.175326 0.540063 0.14464
0.185092 0.545617 0.148959
0.203952 0.549355 0.152026
0.236011 0.550484 0.154009
0.283482 0.547982 0.155459
0.344198 0.542016 0.158129
0.40116 0.534051 0.162142
0.446235 0.527489 0.165103
0.486686 0.522393 0.166079
0.521675 0.517311 0.164691
0.527321 0.492515 0.16289
0.514809 0.455848 0.161212
0.499763 0.422904 0.157259
0.491249 0.408515 0.151278
0.493614 0.42739 0.14612
0.499825 0.448676 0.14313
0.544213 0.490761 0.141741
0.583535 0.520912 0.140887
0.611063 0.534707 0.140414
0.630381 0.537484 0.140566
0.649683 0.539452 0.140642
0.669062 0.54078 0.140505
0.688258 0.541482 0.140291
0.70695 0.541695 0.140093
0.725658 0.541985 0.140017
0.744091 0.54197 0.139666
0.762432 0.541894 0.1393
0.78088 0.542016 0.139147
0.799222 0.542 0.138842
0.817273 0.54197 0.138552
0.162478 0.550668 0.136553
0.169665 0.557092 0.141436
0.175891 0.5626 0.145663
0.18294 0.568505 0.150195
0.192477 0.573556 0.154116
0.21091 0.576623 0.156664
0.2421 0.576806 0.157763
0.289189 0.57409 0.158846
0.34905 0.567773 0.160769
0.406577 0.559548 0.164263
0.453758 0.552285 0.167437
0.495399 0.546181 0.168307
0.533272 0.540932 0.166873
0.555749 0.527916 0.165011
0.546944 0.492439 0.164065
0.535729 0.461112 0.161624
0.522148 0.437552 0.157336
0.515984 0.434577 0.151812
0.518212 0.454795 0.146426
0.52311 0.47158 0.143648
0.562509 0.5093 0.141772
0.599664 0.538354 0.140322
0.627939 0.553765 0.139498
0.647288 0.556817 0.139315
0.666468 0.558282 0.139055
0.685954 0.559197 0.138674
0.704997 0.559701 0.138262
0.723613 0.559899 0.138033
0.741985 0.559853 0.137652
0.760311 0.559792 0.137285
0.778714 0.559899 0.137087
0.796857 0.55967 0.136599
0.814771 0.559518 0.136217
0.170474 0.578271 0.142367
0.17702 0.584039 0.146746
0.182635 0.588937 0.150469
0.188663 0.593729 0.154147
0.197742 0.598169 0.157626
0.215854 0.600717 0.159747
0.246845 0.600748 0.160678
0.292866 0.597238 0.161044
0.351583 0.590494 0.162203
0.409461 0.582055 0.165209
0.458366 0.574304 0.168383
0.502297 0.567575 0.169589
0.541375 0.561913 0.168353
0.575845 0.55761 0.165621
0.572885 0.523705 0.165194
0.56492 0.493339 0.163439
0.554971 0.469764 0.160342
0.542824 0.454673 0.156207
0.539361 0.460609 0.15108
0.542367 0.480552 0.146502
0.548302 0.496315 0.143954
0.580545 0.527413 0.141604
0.61561 0.555169 0.139544
0.644434 0.571374 0.13817
0.664103 0.574548 0.137652
0.683284 0.575616 0.137148
0.702525 0.576455 0.13666
0.721736 0.577157 0.136339
0.740169 0.577157 0.135866
0.75848 0.577127 0.135485
0.776745 0.577111 0.13518
0.794873 0.576883 0.134707
0.812711 0.576684 0.134234
0.176455 0.603265 0.146609
0.182498 0.608484 0.150576
0.187564 0.612848 0.153903
0.193057 0.616983 0.157107
0.201617 0.620737 0.160021
0.219409 0.622782 0.161776
0.249928 0.622293 0.162264
0.295384 0.618402 0.162173
0.353231 0.611536 0.16289
0.411093 0.602884 0.165408
0.460929 0.594842 0.168551
0.507149 0.587427 0.170245
0.547799 0.581216 0.169207
0.583383 0.576501 0.166522
0.593439 0.552361 0.165499
0.590951 0.523461 0.164096
0.586313 0.501427 0.161883
0.579583 0.487541 0.158389
0.571054 0.482094 0.15436
0.57023 0.494285 0.149569
0.573983 0.513085 0.145617
0.578256 0.525673 0.143496
0.600961 0.547677 0.140795
0.631647 0.571496 0.138491
0.661585 0.588754 0.136614
0.681773 0.592096 0.135851
0.700496 0.592737 0.135332
0.719524 0.593439 0.13489
0.738369 0.593942 0.134325
0.756756 0.594034 0.133791
0.77499 0.594018 0.133455
0.793103 0.59382 0.132967
0.810987 0.593683 0.13254
0.180713 0.626276 0.149477
0.186145 0.630869 0.152972
0.190509 0.634531 0.155734
0.195865 0.638498 0.158816
0.204303 0.641932 0.161471
0.221851 0.643412 0.162814
0.252003 0.642466 0.162905
0.297261 0.638514 0.162631
0.354681 0.631662 0.163119
0.412421 0.623346 0.165393
0.463203 0.614847 0.168292
0.510887 0.606577 0.169986
0.55375 0.599832 0.169375
0.59028 0.594965 0.167041
0.609689 0.579156 0.165209
0.6112 0.551476 0.164187
0.613794 0.531655 0.162356
0.612573 0.518791 0.159564
0.606973 0.51107 0.15613
0.599344 0.511223 0.152285
0.599435 0.525216 0.147951
0.602731 0.541924 0.144381
0.606516 0.553323 0.14197
0.626154 0.572351 0.139361
0.649668 0.589487 0.137057
0.679011 0.605676 0.134798
0.699367 0.609354 0.133822
0.718074 0.61004 0.133349
0.736584 0.610391 0.132799
0.755001 0.610574 0.13225
0.773434 0.610803 0.131899
0.791577 0.610666 0.131426
0.809537 0.610651 0.131075
0.183474 0.64828 0.151125
0.188312 0.652293 0.154162
0.192493 0.655772 0.156802
0.197421 0.659205 0.159426
0.205844 0.662303 0.161807
0.223758 0.663737 0.163104
0.253971 0.662562 0.162982
0.299031 0.658289 0.162387
0.355825 0.651164 0.162417
0.413214 0.642878 0.164324
0.464714 0.634379 0.167239
0.514061 0.625635 0.169253
0.558877 0.618204 0.168948
0.596475 0.612726 0.166751
0.625177 0.606165 0.164263
0.626383 0.57734 0.163882
0.62855 0.555367 0.162493
0.631662 0.541558 0.160494
0.634409 0.53576 0.157168
0.632044 0.534157 0.153765
0.625589 0.537697 0.150103
0.626871 0.552911 0.146059
0.629633 0.56846 0.142397
0.633402 0.579522 0.139788
0.653239 0.598672 0.136782
0.674281 0.612863 0.134371
0.697597 0.623575 0.132509
0.716716 0.626612 0.131716
0.735058 0.6271 0.131136
0.753292 0.627283 0.130602
0.771893 0.627726 0.130449
0.790158 0.627756 0.129992
0.808179 0.627832 0.129686
0.184604 0.668544 0.151476
0.189227 0.672328 0.154345
0.192905 0.675334 0.156588
0.197955 0.678798 0.159274
0.206195 0.681483 0.161318
0.223865 0.682445 0.162219
0.254047 0.681208 0.161959
0.298817 0.676844 0.161212
0.355413 0.670008 0.161242
0.412497 0.661753 0.162768
0.464454 0.653208 0.165454
0.515572 0.644099 0.167697
0.56228 0.636255 0.167788
0.601831 0.630381 0.165988
0.633967 0.626474 0.163272
0.641245 0.603738 0.162615
0.643091 0.580713 0.161975
0.645853 0.56347 0.160632
0.648844 0.55314 0.158297
0.651789 0.550072 0.155032
0.653849 0.554162 0.151324
0.650843 0.562005 0.147707
0.653452 0.578454 0.143465
0.655863 0.593851 0.139818
0.659175 0.604547 0.136919
0.677714 0.622263 0.133608
0.69633 0.634028 0.131487
0.714824 0.640742 0.130068
0.733196 0.643549 0.129473
0.751659 0.644327 0.129183
0.769985 0.644678 0.128771
0.788327 0.644892 0.128328
0.8065 0.645151 0.128008
0.18439 0.687922 0.150729
0.188952 0.691615 0.153567
0.192432 0.694423 0.155673
0.197375 0.697749 0.158251
0.205661 0.70016 0.160098
0.223117 0.700923 0.1608
0.25333 0.699428 0.160327
0.297902 0.695125 0.159579
0.353857 0.688228 0.159319
0.410697 0.680095 0.160586
0.462943 0.67155 0.163058
0.515221 0.661936 0.165362
0.563439 0.653666 0.165988
0.605158 0.647593 0.164736
0.638529 0.643381 0.162219
0.65594 0.630579 0.160723
0.657557 0.606973 0.160494
0.659831 0.587655 0.159701
0.662806 0.573724 0.158343
0.665919 0.565957 0.156008
0.66891 0.564538 0.152865
0.671427 0.570077 0.149157
0.673167 0.582513 0.145098
0.674311 0.59794 0.140917
0.674861 0.611887 0.137194
0.676722 0.621561 0.134478
0.694331 0.638437 0.131319
0.712734 0.650401 0.129198
0.731502 0.657801 0.128054
0.749889 0.661189 0.127428
0.768185 0.661967 0.127062
0.786526 0.662364 0.12668
0.804883 0.662745 0.126406
0.183871 0.706889 0.149752
0.187945 0.710124 0.152209
0.191577 0.713085 0.154452
0.196078 0.715908 0.156603
0.204715 0.718334 0.158511
0.222248 0.718944 0.159091
0.252537 0.717449 0.158602
0.296681 0.713008 0.157595
0.352041 0.706127 0.157183
0.408591 0.698146 0.158236
0.461158 0.689647 0.160571
0.514412 0.679835 0.162997
0.564248 0.671153 0.16408
0.607095 0.664454 0.163073
0.642161 0.659983 0.160998
0.670024 0.65745 0.15877
0.67155 0.633204 0.15877
0.673961 0.613535 0.158694
0.676829 0.597147 0.1579
0.679896 0.58558 0.156313
0.682963 0.579416 0.153872
0.686137 0.57937 0.150927
0.688762 0.585794 0.147387
0.690425 0.598657 0.14313
0.691554 0.614542 0.13872
0.692241 0.62887 0.135027
0.694118 0.638392 0.132357
0.711833 0.655482 0.129458
0.729656 0.667369 0.127337
0.748287 0.674968 0.126146
0.76672 0.678996 0.125475
0.785016 0.679881 0.125078
0.803403 0.680522 0.124895
0.18291 0.725353 0.148409
0.18677 0.728435 0.150729
0.190265 0.731228 0.15288
0.194644 0.733898 0.154879
0.203479 0.736156 0.15668
0.22121 0.736721 0.157214
0.251469 0.735088 0.156603
0.295369 0.730648 0.155505
